;FLAVOR:Marlin
;TIME:2137
;Filament used: 2.40247m
;Layer height: 0.25
;MINX:79.616
;MINY:93.618
;MINZ:0.25
;MAXX:130.378
;MAXY:132.38
;MAXZ:25
;Generated with Cura_SteamEngine 4.6.0
M140 S65
M105
M190 S65
M104 S200
M105
M109 S200
M82 ;absolute extrusion mode
G21 ;metric values
G90 ;absolute positioning
M82 ;set extruder to absolute mode
M107 ;start with the fan off
G28 X0 Y0 ;move X/Y to min endstops
G28 Z0 ;move Z to min endstops
G1 Z15.0 F100 ;move the platform down 15mm
G92 E0 ;zero the extruded length
G1 F200 E3 ;extrude 3mm of feed stock
G92 E0 ;zero the extruded length again
G1 F100
G0 Y20 F100
M117 Printing...
G5
G92 E0
G92 E0
G1 F2400 E-6
;LAYER_COUNT:100
;LAYER:0
M106 S255
M204 S3000
M205 X10 Y10
G1 F600 Z0.325
G0 F3000 X109.026 Y130.431 Z0.325
M204 S1800
M205 X8 Y8
;TYPE:SKIRT
G1 F600 Z0.25
G1 F2400 E0
G1 X108.501 Y130.649 E0.03309
G1 X107.852 Y130.856 E0.07274
G1 X107.376 Y130.982 E0.1014
G1 X106.737 Y131.108 E0.13931
G1 X105.997 Y131.207 E0.18276
G1 X105.761 Y131.234 E0.19659
G1 X105.116 Y131.26 E0.23416
G1 X104.552 Y131.248 E0.267
G1 X104.16 Y131.23 E0.28984
G1 X103.541 Y131.162 E0.32608
G1 X103.015 Y131.068 E0.35718
G1 X102.661 Y130.994 E0.37823
G1 X102.061 Y130.832 E0.41441
G1 X101.462 Y130.631 E0.45118
G1 X100.899 Y130.41 E0.48639
G1 X100.063 Y129.997 E0.54066
G1 X99.783 Y129.843 E0.55926
G1 X99.237 Y129.492 E0.59704
G1 X98.679 Y129.083 E0.63731
G1 X98.478 Y128.929 E0.65205
G1 X97.993 Y128.501 E0.6897
G1 X97.514 Y128.022 E0.72913
G1 X97.348 Y127.848 E0.74312
G1 X96.947 Y127.365 E0.77966
G1 X95.84 Y125.855 E0.88864
G1 X94.173 Y123.647 E1.04967
G1 X92.504 Y121.561 E1.20517
G1 X90.769 Y119.516 E1.36127
G1 X88.998 Y117.544 E1.51554
G1 X87.132 Y115.58 E1.67322
G1 X85.253 Y113.71 E1.82752
G1 X84.324 Y112.829 E1.90204
G1 X84.223 Y112.73 E1.91028
G1 X83.512 Y112.018 E1.96884
G1 X83.346 Y111.845 E1.9828
G1 X82.952 Y111.37 E2.01872
G1 X82.541 Y110.811 E2.0591
G1 X82.338 Y110.519 E2.0798
G1 X82.045 Y110.037 E2.11263
G1 X81.826 Y109.615 E2.14031
G1 X81.597 Y109.133 E2.17137
G1 X81.382 Y108.611 E2.20423
G1 X81.111 Y107.763 E2.25604
G1 X81.049 Y107.543 E2.26935
G1 X80.935 Y107.036 E2.29959
G1 X80.848 Y106.53 E2.32948
G1 X80.799 Y106.194 E2.34924
G1 X80.75 Y105.574 E2.38544
G1 X80.736 Y104.87 E2.42643
G1 X80.736 Y104.62 E2.44098
G1 X80.782 Y103.992 E2.47763
G1 X80.868 Y103.348 E2.51545
G1 X80.979 Y102.745 E2.55113
G1 X81.103 Y102.256 E2.5805
G1 X81.349 Y101.485 E2.6276
G1 X81.584 Y100.892 E2.66473
G1 X82.001 Y100.048 E2.71952
G1 X82.284 Y99.561 E2.75231
G1 X82.603 Y99.092 E2.78532
G1 X82.861 Y98.735 E2.81096
G1 X83.267 Y98.258 E2.84742
G1 X83.437 Y98.055 E2.86283
G1 X83.847 Y97.632 E2.89712
G1 X84.325 Y97.203 E2.9345
G1 X84.846 Y96.79 E2.9732
G1 X85.109 Y96.592 E2.99236
G1 X85.645 Y96.244 E3.02956
G1 X86.153 Y95.956 E3.06355
G1 X86.482 Y95.78 E3.08526
G1 X87.047 Y95.523 E3.12139
G1 X87.553 Y95.333 E3.15285
G1 X87.954 Y95.196 E3.17752
G1 X88.444 Y95.054 E3.20721
G1 X89.084 Y94.918 E3.24529
G1 X89.408 Y94.861 E3.26444
G1 X90.037 Y94.789 E3.30129
G1 X90.902 Y94.742 E3.35171
G1 X91.419 Y94.739 E3.38181
G1 X91.865 Y94.759 E3.40779
G1 X93.862 Y94.877 E3.52423
G1 X96.499 Y94.959 E3.67779
G1 X99.206 Y94.966 E3.83536
G1 X101.861 Y94.898 E3.98994
G1 X103.643 Y94.811 E4.09379
G1 X104.896 Y94.742 E4.16683
G1 X105.418 Y94.739 E4.19721
G1 X105.865 Y94.759 E4.22326
G1 X107.862 Y94.877 E4.33969
G1 X110.499 Y94.959 E4.49326
G1 X113.206 Y94.966 E4.65082
G1 X115.861 Y94.898 E4.8054
G1 X117.643 Y94.811 E4.90925
G1 X118.681 Y94.751 E4.96977
G1 X119.12 Y94.738 E4.99533
G1 X119.766 Y94.764 E5.03296
G1 X120.518 Y94.851 E5.07702
G1 X121.142 Y94.971 E5.11401
G1 X121.89 Y95.161 E5.15893
G1 X122.062 Y95.207 E5.16929
G1 X122.674 Y95.424 E5.20709
G1 X123.256 Y95.671 E5.24389
G1 X123.619 Y95.837 E5.26712
G1 X124.184 Y96.144 E5.30455
G1 X124.94 Y96.635 E5.35702
G1 X125.461 Y97.029 E5.39504
G1 X126.097 Y97.595 E5.44459
G1 X126.521 Y98.032 E5.48003
G1 X126.916 Y98.489 E5.51519
G1 X127.366 Y99.07 E5.55796
G1 X127.771 Y99.688 E5.60097
G1 X128.031 Y100.134 E5.63102
G1 X128.314 Y100.698 E5.66775
G1 X128.665 Y101.561 E5.72197
G1 X128.841 Y102.096 E5.75476
G1 X129.064 Y103.024 E5.81031
G1 X129.164 Y103.656 E5.84755
G1 X129.222 Y104.259 E5.88281
G1 X129.249 Y104.614 E5.90353
G1 X129.258 Y105.217 E5.93864
G1 X129.191 Y106.155 E5.99337
G1 X129.088 Y106.842 E6.03381
G1 X128.968 Y107.406 E6.06737
G1 X128.877 Y107.773 E6.08938
G1 X128.713 Y108.309 E6.122
G1 X128.378 Y109.15 E6.17469
G1 X128.095 Y109.728 E6.21215
G1 X127.721 Y110.387 E6.25626
G1 X127.602 Y110.589 E6.2699
G1 X127.258 Y111.091 E6.30532
G1 X126.948 Y111.486 E6.33455
G1 X126.578 Y111.918 E6.36766
G1 X126.265 Y112.25 E6.39421
G1 X125.896 Y112.608 E6.42414
G1 X125.843 Y112.657 E6.42834
G1 X124.664 Y113.77 E6.52271
G1 X122.751 Y115.682 E6.68014
G1 X120.928 Y117.609 E6.83454
G1 X119.123 Y119.63 E6.99226
G1 X117.397 Y121.674 E7.14797
G1 X115.725 Y123.773 E7.30417
G1 X114.127 Y125.9 E7.45902
G1 X113.789 Y126.375 E7.49295
G1 X113.437 Y126.856 E7.52764
G1 X113.101 Y127.294 E7.55977
G1 X112.571 Y127.925 E7.60774
G1 X112.166 Y128.341 E7.64153
G1 X111.749 Y128.724 E7.67448
G1 X111.404 Y129.019 E7.70091
G1 X110.789 Y129.47 E7.7453
G1 X110.281 Y129.795 E7.7804
G1 X109.727 Y130.098 E7.81715
G1 X109.711 Y130.107 E7.81822
G1 X109.705 Y130.109 E7.81859
G1 X109.026 Y130.431 E7.86233
M204 S3000
M205 X10 Y10
G1 F2400 E1.86233
G0 F3000 X113.471 Y106.266
G0 X113.343 Y105.434
G0 X113.343 Y104.566
G0 X113.494 Y103.647
G0 X113.782 Y102.793
G0 X114.148 Y102.067
G0 X120.589 Y94.296
M204 S1800
M205 X8 Y8
G1 F2400 E7.86233
G1 X121.28 Y94.428 E7.90327
G1 X122.028 Y94.618 E7.94819
G1 X122.215 Y94.669 E7.95948
G1 X122.893 Y94.908 E8.00132
G1 X123.475 Y95.155 E8.03812
G1 X123.857 Y95.33 E8.06258
G1 X124.481 Y95.67 E8.10394
G1 X124.916 Y95.945 E8.13389
G1 X125.548 Y96.381 E8.17858
G1 X125.99 Y96.743 E8.21184
G1 X126.475 Y97.183 E8.24995
G1 X126.944 Y97.666 E8.28914
G1 X127.339 Y98.123 E8.3243
G1 X127.815 Y98.735 E8.36942
G1 X128.118 Y99.182 E8.40086
G1 X128.516 Y99.853 E8.44627
G1 X128.829 Y100.477 E8.4869
G1 X129.186 Y101.358 E8.54223
G1 X129.381 Y101.949 E8.57845
G1 X129.511 Y102.45 E8.60858
G1 X129.611 Y102.903 E8.63558
G1 X129.721 Y103.603 E8.67682
G1 X129.779 Y104.206 E8.71208
G1 X129.808 Y104.573 E8.73351
G1 X129.818 Y105.24 E8.77234
G1 X129.748 Y106.205 E8.82865
G1 X129.679 Y106.721 E8.85895
G1 X129.552 Y107.36 E8.89687
G1 X129.42 Y107.908 E8.92968
G1 X129.239 Y108.5 E8.96572
G1 X128.895 Y109.366 E9.01995
G1 X128.582 Y110.004 E9.06132
G1 X128.208 Y110.663 E9.10542
G1 X128.081 Y110.878 E9.11995
G1 X127.702 Y111.433 E9.15907
G1 X127.384 Y111.837 E9.189
G1 X127.001 Y112.285 E9.2233
G1 X126.655 Y112.652 E9.25266
G1 X126.286 Y113.01 E9.28259
G1 X125.031 Y114.195 E9.38305
G1 X123.158 Y116.067 E9.53719
G1 X121.322 Y118.008 E9.6927
G1 X119.555 Y119.985 E9.84703
G1 X117.833 Y122.026 E10.00246
G1 X116.167 Y124.117 E10.15808
G1 X114.578 Y126.232 E10.31205
G1 X114.245 Y126.7 E10.34548
G1 X113.889 Y127.187 E10.3806
G1 X113.545 Y127.636 E10.41352
G1 X112.993 Y128.293 E10.46347
G1 X112.544 Y128.753 E10.50088
G1 X112.127 Y129.136 E10.53384
G1 X111.763 Y129.449 E10.56178
G1 X111.332 Y129.776 E10.59327
G1 X110.907 Y130.063 E10.62312
G1 X110.58 Y130.269 E10.64561
G1 X109.981 Y130.599 E10.68542
G1 X109.967 Y130.605 E10.6863
G1 X109.266 Y130.937 E10.73145
G1 X108.701 Y131.171 E10.76705
G1 X108.008 Y131.394 E10.80942
G1 X107.518 Y131.524 E10.83893
G1 X106.811 Y131.663 E10.88087
G1 X106.071 Y131.762 E10.92432
G1 X105.817 Y131.791 E10.9392
G1 X105.104 Y131.82 E10.98074
G1 X104.54 Y131.808 E11.01357
G1 X104.131 Y131.789 E11.0374
G1 X103.447 Y131.714 E11.07745
G1 X102.9 Y131.616 E11.1098
G1 X102.546 Y131.542 E11.13085
G1 X101.883 Y131.363 E11.17082
G1 X101.284 Y131.162 E11.2076
G1 X100.683 Y130.927 E11.24516
G1 X99.805 Y130.493 E11.30216
G1 X99.51 Y130.331 E11.32175
G1 X98.906 Y129.943 E11.36354
G1 X98.348 Y129.534 E11.40381
G1 X98.133 Y129.37 E11.41955
G1 X97.597 Y128.897 E11.46115
G1 X97.118 Y128.418 E11.50058
G1 X96.939 Y128.23 E11.51569
G1 X96.496 Y127.696 E11.55608
G1 X95.393 Y126.192 E11.66464
G1 X93.733 Y123.993 E11.825
G1 X92.07 Y121.915 E11.97992
G1 X90.37 Y119.911 E12.13288
G1 X88.554 Y117.889 E12.29107
G1 X86.745 Y115.985 E12.44393
G1 X84.847 Y114.097 E12.59976
G1 X83.939 Y113.235 E12.67263
G1 X83.827 Y113.126 E12.68173
G1 X83.116 Y112.414 E12.74029
G1 X82.937 Y112.227 E12.75536
G1 X82.501 Y111.701 E12.79513
G1 X82.09 Y111.142 E12.83551
G1 X81.876 Y110.835 E12.85729
G1 X81.552 Y110.302 E12.8936
G1 X81.32 Y109.855 E12.92291
G1 X81.091 Y109.373 E12.95397
G1 X80.854 Y108.796 E12.99028
G1 X80.575 Y107.925 E13.04351
G1 X80.509 Y107.692 E13.05761
G1 X80.383 Y107.131 E13.09107
G1 X80.296 Y106.625 E13.12096
G1 X80.244 Y106.27 E13.14184
G1 X80.19 Y105.585 E13.18184
G1 X80.176 Y104.881 E13.22282
G1 X80.177 Y104.612 E13.23848
G1 X80.227 Y103.918 E13.27898
G1 X80.313 Y103.274 E13.31679
G1 X80.43 Y102.633 E13.35472
G1 X80.567 Y102.092 E13.3872
G1 X80.817 Y101.31 E13.43499
G1 X81.077 Y100.654 E13.47606
G1 X81.502 Y99.793 E13.53195
G1 X81.771 Y99.324 E13.56342
G1 X82.063 Y98.886 E13.59406
G1 X82.407 Y98.407 E13.62838
G1 X82.855 Y97.88 E13.66864
G1 X82.845 Y97.871 E13.66943
G1 X83.223 Y97.467 E13.70163
G1 X83.448 Y97.239 E13.72027
G1 X83.977 Y96.764 E13.76166
G1 X84.498 Y96.351 E13.80035
G1 X84.776 Y96.142 E13.8206
G1 X85.369 Y95.757 E13.86175
G1 X85.877 Y95.469 E13.89574
G1 X86.221 Y95.284 E13.91847
G1 X86.845 Y95.001 E13.95835
G1 X87.372 Y94.803 E13.99112
G1 X87.773 Y94.666 E14.01579
G1 X88.315 Y94.509 E14.04863
G1 X88.987 Y94.366 E14.08862
G1 X89.311 Y94.309 E14.10777
G1 X90.006 Y94.23 E14.14848
G1 X90.871 Y94.183 E14.1989
G1 X91.444 Y94.18 E14.23225
G1 X91.898 Y94.2 E14.25871
G1 X93.876 Y94.317 E14.37404
G1 X96.519 Y94.399 E14.52795
G1 X99.192 Y94.406 E14.68353
G1 X101.861 Y94.338 E14.83893
G1 X103.615 Y94.252 E14.94114
G1 X104.865 Y94.183 E15.01401
G1 X105.442 Y94.18 E15.0476
G1 X105.898 Y94.2 E15.07416
G1 X107.876 Y94.317 E15.1895
G1 X110.519 Y94.399 E15.34341
G1 X113.192 Y94.406 E15.49899
G1 X115.861 Y94.338 E15.65439
G1 X117.615 Y94.252 E15.7566
G1 X118.649 Y94.192 E15.81689
G1 X119.108 Y94.178 E15.84362
G1 X119.823 Y94.207 E15.88527
G1 X120.589 Y94.296 E15.93015
M204 S3000
M205 X10 Y10
G0 F3000 X120.661 Y93.741
M204 S1800
M205 X8 Y8
G1 F2400 X121.418 Y93.885 E15.97501
G1 X122.166 Y94.075 E16.01993
G1 X122.369 Y94.13 E16.03217
G1 X123.111 Y94.393 E16.07799
G1 X123.693 Y94.64 E16.11479
G1 X124.094 Y94.823 E16.14044
G1 X124.778 Y95.195 E16.18576
G1 X125.227 Y95.48 E16.21672
G1 X125.888 Y95.936 E16.26346
G1 X126.352 Y96.316 E16.29837
G1 X126.854 Y96.77 E16.33776
G1 X127.368 Y97.3 E16.38074
G1 X127.763 Y97.757 E16.41589
G1 X128.263 Y98.4 E16.4633
G1 X128.595 Y98.89 E16.49775
G1 X129 Y99.573 E16.54397
G1 X129.343 Y100.256 E16.58846
G1 X129.539 Y100.721 E16.61783
G1 X129.708 Y101.154 E16.64488
G1 X129.922 Y101.802 E16.6846
G1 X130.058 Y102.329 E16.71628
G1 X130.158 Y102.782 E16.74329
G1 X130.279 Y103.549 E16.78848
G1 X130.337 Y104.152 E16.82374
G1 X130.366 Y104.532 E16.84592
G1 X130.378 Y105.263 E16.88848
G1 X130.348 Y105.789 E16.91914
G1 X130.306 Y106.255 E16.94638
G1 X130.23 Y106.821 E16.97962
G1 X130.1 Y107.478 E17.0186
G1 X129.964 Y108.042 E17.05237
G1 X129.766 Y108.692 E17.09192
G1 X129.412 Y109.581 E17.14761
G1 X129.069 Y110.281 E17.19298
G1 X128.695 Y110.94 E17.23709
G1 X128.561 Y111.166 E17.25238
G1 X128.145 Y111.775 E17.29531
G1 X127.82 Y112.188 E17.3259
G1 X127.424 Y112.652 E17.3614
G1 X127.044 Y113.053 E17.39356
G1 X126.675 Y113.411 E17.42348
G1 X126.612 Y113.472 E17.42859
G1 X125.433 Y114.585 E17.52296
G1 X123.547 Y116.471 E17.67821
G1 X121.751 Y118.368 E17.83026
G1 X119.971 Y120.361 E17.98579
G1 X118.269 Y122.378 E18.1394
G1 X116.605 Y124.467 E18.29485
G1 X115.021 Y126.575 E18.44833
G1 X114.701 Y127.024 E18.48042
G1 X114.341 Y127.517 E18.51595
G1 X113.988 Y127.978 E18.54975
G1 X113.656 Y128.385 E18.58032
G1 X113.415 Y128.661 E18.60165
G1 X112.923 Y129.166 E18.64268
G1 X112.506 Y129.549 E18.67564
G1 X112.122 Y129.879 E18.70511
G1 X111.65 Y130.237 E18.73959
G1 X111.205 Y130.537 E18.77083
G1 X110.878 Y130.743 E18.79332
G1 X110.253 Y131.09 E18.83493
G1 X110.206 Y131.111 E18.83793
G1 X109.505 Y131.443 E18.88308
G1 X108.902 Y131.694 E18.92109
G1 X108.392 Y131.866 E18.95242
G1 X107.66 Y132.066 E18.99659
G1 X106.886 Y132.218 E19.0425
G1 X106.146 Y132.317 E19.08595
G1 X105.874 Y132.348 E19.10189
G1 X105.092 Y132.38 E19.14744
G1 X104.528 Y132.368 E19.18028
G1 X104.103 Y132.349 E19.20504
G1 X103.352 Y132.266 E19.24902
G1 X102.785 Y132.165 E19.28254
G1 X102.431 Y132.091 E19.30359
G1 X101.705 Y131.894 E19.34738
G1 X101.106 Y131.693 E19.38415
G1 X100.467 Y131.444 E19.42407
G1 X99.974 Y131.213 E19.45576
G1 X99.382 Y130.901 E19.49471
G1 X99.237 Y130.82 E19.50438
G1 X98.574 Y130.395 E19.55021
G1 X98.016 Y129.986 E19.59048
G1 X97.788 Y129.811 E19.60721
G1 X97.202 Y129.292 E19.65277
G1 X96.723 Y128.813 E19.6922
G1 X96.53 Y128.612 E19.70842
G1 X96.044 Y128.027 E19.75269
G1 X94.923 Y126.498 E19.86304
G1 X93.293 Y124.338 E20.02054
G1 X91.636 Y122.269 E20.17483
G1 X89.94 Y120.269 E20.32746
G1 X88.162 Y118.29 E20.48231
G1 X86.34 Y116.372 E20.63629
G1 X84.462 Y114.504 E20.79047
G1 X83.553 Y113.641 E20.86342
G1 X83.43 Y113.521 E20.87342
G1 X82.719 Y112.809 E20.93199
G1 X82.527 Y112.609 E20.94813
G1 X82.05 Y112.033 E20.99166
G1 X81.639 Y111.474 E21.03204
G1 X81.413 Y111.151 E21.05499
G1 X81.058 Y110.566 E21.09482
G1 X80.814 Y110.095 E21.12569
G1 X80.585 Y109.613 E21.15675
G1 X80.325 Y108.981 E21.19653
G1 X80.161 Y108.494 E21.22644
G1 X79.996 Y107.939 E21.26014
G1 X79.969 Y107.841 E21.26606
G1 X79.832 Y107.225 E21.30279
G1 X79.745 Y106.719 E21.33267
G1 X79.69 Y106.347 E21.35456
G1 X79.63 Y105.596 E21.39841
G1 X79.616 Y104.892 E21.4394
G1 X79.617 Y104.605 E21.4561
G1 X79.672 Y103.844 E21.50051
G1 X79.758 Y103.2 E21.53833
G1 X79.881 Y102.522 E21.57843
G1 X80.031 Y101.929 E21.61404
G1 X80.284 Y101.135 E21.66254
G1 X80.57 Y100.417 E21.70753
G1 X80.787 Y99.962 E21.73687
G1 X81.004 Y99.538 E21.76459
G1 X81.298 Y99.024 E21.79906
G1 X81.601 Y98.57 E21.83083
G1 X81.953 Y98.079 E21.86599
G1 X82.444 Y97.503 E21.91004
G1 X82.433 Y97.493 E21.91091
G1 X82.825 Y97.074 E21.94431
G1 X83.05 Y96.846 E21.96295
G1 X83.629 Y96.326 E22.00825
G1 X84.15 Y95.913 E22.04695
G1 X84.443 Y95.692 E22.06831
G1 X85.093 Y95.269 E22.11345
G1 X85.601 Y94.981 E22.14744
G1 X85.96 Y94.789 E22.17113
G1 X86.644 Y94.478 E22.21487
G1 X87.191 Y94.273 E22.24887
G1 X87.592 Y94.136 E22.27353
G1 X88.186 Y93.964 E22.30953
G1 X88.685 Y93.854 E22.33927
G1 X89.214 Y93.758 E22.37056
G1 X89.976 Y93.67 E22.41521
G1 X90.841 Y93.623 E22.46563
G1 X91.468 Y93.62 E22.50213
G1 X91.931 Y93.641 E22.5291
G1 X93.891 Y93.757 E22.64338
G1 X96.537 Y93.839 E22.79747
G1 X99.179 Y93.846 E22.95125
G1 X101.863 Y93.777 E23.10752
G1 X103.555 Y93.695 E23.20612
G1 X104.834 Y93.624 E23.28068
G1 X105.467 Y93.62 E23.31753
G1 X105.931 Y93.641 E23.34456
G1 X107.891 Y93.757 E23.45884
G1 X110.537 Y93.839 E23.61293
G1 X113.179 Y93.846 E23.76671
G1 X115.863 Y93.777 E23.92298
G1 X117.548 Y93.695 E24.02117
G1 X118.616 Y93.633 E24.08344
G1 X119.097 Y93.618 E24.11145
G1 X119.88 Y93.65 E24.15706
G1 X120.661 Y93.741 E24.20283
M204 S3000
M205 X10 Y10
G1 F2400 E18.20283
;MESH:frame_standoff.stl(1)
G0 F3000 X94.444 Y100.504
G0 X92.968 Y101.364
G0 X92.393 Y101.086
M204 S1800
M205 X8 Y8
;TYPE:WALL-INNER
G1 F2400 E24.20283
G1 F1200 X92.977 Y101.347 E24.24006
G1 X93.515 Y101.696 E24.27739
G1 X93.984 Y102.113 E24.31392
G1 X94.395 Y102.61 E24.35145
G1 X94.716 Y103.151 E24.38807
G1 X94.957 Y103.747 E24.42549
G1 X95.102 Y104.369 E24.46266
G1 X95.151 Y105.004 E24.49973
G1 X95.103 Y105.629 E24.53622
G1 X94.959 Y106.25 E24.57332
G1 X94.721 Y106.838 E24.61024
G1 X94.393 Y107.392 E24.64772
G1 X93.984 Y107.887 E24.68509
G1 X93.515 Y108.305 E24.72166
G1 X92.977 Y108.654 E24.75898
G1 X92.396 Y108.913 E24.79601
G1 X91.781 Y109.083 E24.83315
G1 X91.157 Y109.154 E24.8697
G1 X90.513 Y109.13 E24.90721
G1 X89.886 Y109.007 E24.9444
G1 X89.298 Y108.797 E24.98074
G1 X88.733 Y108.49 E25.01817
G1 X88.225 Y108.102 E25.05538
G1 X87.783 Y107.643 E25.09247
