;FLAVOR:Marlin
;TIME:2946
;Filament used: 2.94581m
;Layer height: 0.25
;MINX:38.6
;MINY:48.6
;MINZ:0.25
;MAXX:171.4
;MAXY:161.4
;MAXZ:2.5
;Generated with Cura_SteamEngine 4.6.0
M140 S65
M105
M190 S65
M104 S200
M105
M109 S200
M82 ;absolute extrusion mode
G21 ;metric values
G90 ;absolute positioning
M82 ;set extruder to absolute mode
M107 ;start with the fan off
G28 X0 Y0 ;move X/Y to min endstops
G28 Z0 ;move Z to min endstops
G1 Z15.0 F100 ;move the platform down 15mm
G92 E0 ;zero the extruded length
G1 F200 E3 ;extrude 3mm of feed stock
G92 E0 ;zero the extruded length again
G1 F100
G0 Y20 F100
M117 Printing...
G5
G92 E0
G92 E0
G1 F2400 E-6
;LAYER_COUNT:10
;LAYER:0
M106 S255
M204 S3000
M205 X10 Y10
G1 F600 Z0.325
G0 F3000 X160.067 Y49.731 Z0.325
M204 S1800
M205 X8 Y8
;TYPE:SKIRT
G1 F600 Z0.25
G1 F2400 E0
G1 X160.552 Y49.758 E0.02827
G1 X161.211 Y49.823 E0.06682
G1 X161.816 Y49.902 E0.10233
G1 X162.386 Y50.012 E0.13612
G1 X162.973 Y50.186 E0.17175
G1 X163.357 Y50.317 E0.19537
G1 X163.986 Y50.549 E0.23439
G1 X164.739 Y50.896 E0.28265
G1 X165.399 Y51.29 E0.32739
G1 X165.988 Y51.671 E0.36822
G1 X166.706 Y52.248 E0.42183
G1 X167.342 Y52.858 E0.47313
G1 X167.673 Y53.194 E0.50058
G1 X168.212 Y53.842 E0.54964
G1 X168.545 Y54.347 E0.58485
G1 X168.601 Y54.434 E0.59087
G1 X168.883 Y54.892 E0.62218
G1 X168.944 Y54.989 E0.62885
G1 X169.255 Y55.559 E0.66664
G1 X169.422 Y55.959 E0.69187
G1 X169.681 Y56.655 E0.73509
G1 X169.869 Y57.203 E0.76882
G1 X170.038 Y57.83 E0.80661
G1 X170.104 Y58.233 E0.83038
G1 X170.169 Y58.753 E0.86088
G1 X170.23 Y59.351 E0.89587
G1 X170.261 Y59.834 E0.92404
G1 X170.279 Y60.819 E0.98138
G1 X170.28 Y60.915 E0.98697
G1 X170.28 Y149.293 E6.13104
G1 X170.269 Y150.067 E6.17609
G1 X170.242 Y150.552 E6.20436
G1 X170.177 Y151.211 E6.24291
G1 X170.098 Y151.815 E6.27836
G1 X169.908 Y152.673 E6.32951
G1 X169.719 Y153.258 E6.3653
G1 X169.678 Y153.372 E6.37235
G1 X169.449 Y153.991 E6.41076
G1 X169.104 Y154.739 E6.45871
G1 X168.713 Y155.395 E6.50316
G1 X168.341 Y155.971 E6.54307
G1 X167.752 Y156.705 E6.59785
G1 X167.141 Y157.342 E6.64922
G1 X166.796 Y157.682 E6.67741
G1 X166.195 Y158.185 E6.72303
G1 X165.658 Y158.542 E6.76056
G1 X165.566 Y158.601 E6.76693
G1 X165.068 Y158.908 E6.80098
G1 X165.011 Y158.944 E6.8049
G1 X164.441 Y159.255 E6.8427
G1 X164.041 Y159.422 E6.86793
G1 X163.345 Y159.681 E6.91115
G1 X162.795 Y159.869 E6.94498
G1 X162.168 Y160.038 E6.98278
G1 X161.776 Y160.102 E7.0059
G1 X161.254 Y160.168 E7.03652
G1 X160.643 Y160.231 E7.07227
G1 X160.165 Y160.261 E7.10015
G1 X159.182 Y160.279 E7.15738
G1 X159.085 Y160.28 E7.16302
G1 X50.707 Y160.28 E13.47119
G1 X49.933 Y160.269 E13.51624
G1 X49.448 Y160.242 E13.54452
G1 X48.789 Y160.177 E13.58306
G1 X48.183 Y160.098 E13.61863
G1 X47.483 Y159.953 E13.66024
G1 X46.914 Y159.777 E13.69491
G1 X46.628 Y159.678 E13.71252
G1 X46.009 Y159.449 E13.75094
G1 X45.25 Y159.098 E13.79961
G1 X44.593 Y158.705 E13.84417
G1 X44.012 Y158.329 E13.88445
G1 X43.294 Y157.752 E13.93807
G1 X42.658 Y157.142 E13.98936
G1 X42.327 Y156.807 E14.01677
G1 X41.802 Y156.178 E14.06446
G1 X41.458 Y155.659 E14.1007
G1 X41.394 Y155.559 E14.10761
G1 X41.089 Y155.063 E14.1415
G1 X41.063 Y155.021 E14.14438
G1 X40.75 Y154.452 E14.18218
G1 X40.578 Y154.043 E14.208
G1 X40.315 Y153.336 E14.25191
G1 X40.13 Y152.792 E14.28535
G1 X39.961 Y152.165 E14.32315
G1 X39.896 Y151.767 E14.34662
G1 X39.831 Y151.248 E14.37707
G1 X39.77 Y150.649 E14.41211
G1 X39.739 Y150.166 E14.44028
G1 X39.721 Y149.181 E14.49763
G1 X39.72 Y149.085 E14.50321
G1 X39.72 Y60.674 E19.6492
G1 X39.731 Y59.93 E19.69251
G1 X39.758 Y59.448 E19.7206
G1 X39.823 Y58.789 E19.75915
G1 X39.902 Y58.183 E19.79472
G1 X40 Y57.664 E19.82546
G1 X40.198 Y56.988 E19.86646
G1 X40.323 Y56.626 E19.88875
G1 X40.549 Y56.012 E19.92683
G1 X40.914 Y55.227 E19.97722
G1 X41.289 Y54.601 E20.0197
G1 X41.666 Y54.019 E20.06006
G1 X42.251 Y53.29 E20.11446
G1 X42.861 Y52.655 E20.16571
G1 X43.207 Y52.315 E20.19395
G1 X43.883 Y51.759 E20.2449
G1 X44.335 Y51.461 E20.27641
G1 X44.438 Y51.396 E20.2835
G1 X44.937 Y51.089 E20.3176
G1 X44.991 Y51.055 E20.32131
G1 X45.561 Y50.744 E20.35911
G1 X45.955 Y50.579 E20.38397
G1 X46.653 Y50.319 E20.42732
G1 X47.205 Y50.131 E20.46126
G1 X47.832 Y49.962 E20.49906
G1 X48.224 Y49.898 E20.52218
G1 X48.746 Y49.832 E20.5528
G1 X49.357 Y49.769 E20.58856
G1 X49.835 Y49.739 E20.61643
G1 X50.818 Y49.721 E20.67366
G1 X50.915 Y49.72 E20.6793
G1 X159.293 Y49.72 E26.98747
G1 X159.369 Y49.721 E26.9919
G1 X160.067 Y49.731 E27.03253
M204 S3000
M205 X10 Y10
G0 F3000 X160.075 Y49.171
M204 S1800
M205 X8 Y8
G1 F2400 X160.607 Y49.201 E27.06354
G1 X161.266 Y49.266 E27.10209
G1 X161.892 Y49.347 E27.13883
G1 X162.521 Y49.468 E27.17611
G1 X163.141 Y49.652 E27.21375
G1 X163.551 Y49.792 E27.23897
G1 X164.18 Y50.024 E27.27799
G1 X165.012 Y50.408 E27.33133
G1 X165.691 Y50.812 E27.37731
G1 X166.299 Y51.206 E27.41948
G1 X167.093 Y51.844 E27.47877
G1 X167.729 Y52.454 E27.53006
G1 X168.074 Y52.803 E27.55863
G1 X168.67 Y53.519 E27.61285
G1 X169.016 Y54.043 E27.6494
G1 X169.357 Y54.594 E27.68711
G1 X169.418 Y54.691 E27.69378
G1 X169.747 Y55.29 E27.73356
G1 X169.947 Y55.763 E27.76345
G1 X170.206 Y56.459 E27.80668
G1 X170.4 Y57.024 E27.84145
G1 X170.579 Y57.683 E27.8812
G1 X170.66 Y58.164 E27.90959
G1 X170.725 Y58.684 E27.94009
G1 X170.787 Y59.29 E27.97554
G1 X170.821 Y59.823 E28.00663
G1 X170.839 Y60.808 E28.06397
G1 X170.84 Y60.915 E28.0702
G1 X170.84 Y149.293 E33.21426
G1 X170.829 Y150.075 E33.25978
G1 X170.799 Y150.607 E33.2908
G1 X170.734 Y151.266 E33.32934
G1 X170.653 Y151.891 E33.36602
G1 X170.443 Y152.839 E33.42254
G1 X170.248 Y153.44 E33.45932
G1 X170.203 Y153.566 E33.46711
G1 X169.974 Y154.185 E33.50552
G1 X169.592 Y155.012 E33.55854
G1 X169.191 Y155.687 E33.60424
G1 X168.807 Y156.281 E33.64541
G1 X168.396 Y156.827 E33.68519
G1 X168.157 Y157.093 E33.706
G1 X167.546 Y157.73 E33.75738
G1 X167.187 Y158.084 E33.78672
G1 X166.522 Y158.64 E33.83718
G1 X165.962 Y159.013 E33.87634
G1 X165.406 Y159.357 E33.9144
G1 X165.309 Y159.418 E33.92107
G1 X164.71 Y159.747 E33.96084
G1 X164.237 Y159.947 E33.99073
G1 X163.541 Y160.206 E34.03396
G1 X162.974 Y160.4 E34.06884
G1 X162.314 Y160.579 E34.10864
G1 X161.847 Y160.658 E34.13621
G1 X161.325 Y160.724 E34.16684
G1 X160.704 Y160.787 E34.20317
G1 X160.175 Y160.821 E34.23402
G1 X159.192 Y160.839 E34.29125
G1 X159.085 Y160.84 E34.29748
G1 X50.707 Y160.84 E40.60564
G1 X49.925 Y160.829 E40.65116
G1 X49.393 Y160.799 E40.68218
G1 X48.734 Y160.734 E40.72072
G1 X48.108 Y160.653 E40.75746
G1 X47.333 Y160.493 E40.80352
G1 X46.734 Y160.307 E40.84003
G1 X46.434 Y160.203 E40.85851
G1 X45.815 Y159.974 E40.89693
G1 X44.976 Y159.586 E40.95073
G1 X44.301 Y159.183 E40.99649
G1 X43.701 Y158.794 E41.03811
G1 X42.907 Y158.156 E41.09739
G1 X42.271 Y157.546 E41.14869
G1 X41.927 Y157.198 E41.17717
G1 X41.346 Y156.502 E41.22994
G1 X40.988 Y155.963 E41.2676
G1 X40.917 Y155.852 E41.27527
G1 X40.649 Y155.416 E41.30506
G1 X40.589 Y155.321 E41.3116
G1 X40.259 Y154.723 E41.35135
G1 X40.053 Y154.238 E41.38202
G1 X39.79 Y153.531 E41.42593
G1 X39.599 Y152.971 E41.46037
G1 X39.42 Y152.311 E41.50017
G1 X39.34 Y151.837 E41.52815
G1 X39.275 Y151.318 E41.5586
G1 X39.213 Y150.71 E41.59417
G1 X39.179 Y150.177 E41.62525
G1 X39.161 Y149.192 E41.6826
G1 X39.16 Y149.085 E41.68882
G1 X39.16 Y60.674 E46.83481
G1 X39.171 Y59.921 E46.87864
G1 X39.201 Y59.393 E46.90942
G1 X39.266 Y58.734 E46.94797
G1 X39.347 Y58.108 E46.98471
G1 X39.455 Y57.533 E47.01876
G1 X39.665 Y56.818 E47.06213
G1 X39.797 Y56.433 E47.08582
G1 X40.023 Y55.819 E47.12391
G1 X40.427 Y54.95 E47.17968
G1 X40.811 Y54.309 E47.22318
G1 X41.2 Y53.709 E47.2648
G1 X41.611 Y53.163 E47.30458
G1 X41.847 Y52.902 E47.32506
G1 X42.457 Y52.267 E47.37631
G1 X42.816 Y51.914 E47.40561
G1 X43.564 Y51.298 E47.46201
G1 X44.031 Y50.991 E47.49454
G1 X44.145 Y50.919 E47.50239
G1 X44.644 Y50.612 E47.53649
G1 X44.693 Y50.581 E47.53987
G1 X45.292 Y50.252 E47.57964
G1 X45.759 Y50.054 E47.60917
G1 X46.457 Y49.794 E47.65252
G1 X47.026 Y49.6 E47.68751
G1 X47.686 Y49.421 E47.72732
G1 X48.153 Y49.342 E47.75488
G1 X48.675 Y49.276 E47.78551
G1 X49.296 Y49.213 E47.82184
G1 X49.825 Y49.179 E47.85269
G1 X50.808 Y49.161 E47.90992
G1 X50.915 Y49.16 E47.91615
G1 X159.293 Y49.16 E54.22432
G1 X159.377 Y49.161 E54.2292
G1 X160.075 Y49.171 E54.26984
M204 S3000
M205 X10 Y10
G0 F3000 X160.083 Y48.611
M204 S1800
M205 X8 Y8
G1 F2400 X160.662 Y48.644 E54.30359
G1 X161.321 Y48.709 E54.34214
G1 X161.967 Y48.792 E54.38004
G1 X162.657 Y48.925 E54.42095
G1 X163.309 Y49.117 E54.46051
G1 X163.745 Y49.266 E54.48733
G1 X164.374 Y49.498 E54.52635
G1 X165.286 Y49.919 E54.58481
G1 X165.983 Y50.334 E54.63203
G1 X166.611 Y50.74 E54.67556
G1 X167.182 Y51.171 E54.7172
G1 X167.481 Y51.44 E54.74061
G1 X168.117 Y52.05 E54.7919
G1 X168.475 Y52.411 E54.82149
G1 X169.128 Y53.197 E54.88097
G1 X169.487 Y53.74 E54.91886
G1 X169.831 Y54.296 E54.95691
G1 X169.892 Y54.393 E54.96358
G1 X170.238 Y55.019 E55.00521
G1 X170.472 Y55.568 E55.03995
G1 X170.731 Y56.264 E55.08318
G1 X170.93 Y56.846 E55.11898
G1 X171.12 Y57.535 E55.16058
G1 X171.216 Y58.094 E55.19359
G1 X171.281 Y58.614 E55.22409
G1 X171.343 Y59.228 E55.26001
G1 X171.381 Y59.813 E55.29413
G1 X171.399 Y60.798 E55.35148
G1 X171.4 Y60.915 E55.35829
G1 X171.4 Y149.293 E60.50235
G1 X171.389 Y150.083 E60.54833
G1 X171.356 Y150.662 E60.58209
G1 X171.291 Y151.321 E60.62063
G1 X171.208 Y151.966 E60.65849
G1 X170.978 Y153.005 E60.72042
G1 X170.778 Y153.623 E60.75823
G1 X170.499 Y154.38 E60.80519
G1 X170.081 Y155.286 E60.86327
G1 X169.67 Y155.978 E60.91011
G1 X169.274 Y156.59 E60.95254
G1 X168.845 Y157.163 E60.9942
G1 X168.561 Y157.48 E61.01898
G1 X167.95 Y158.117 E61.07035
G1 X167.577 Y158.485 E61.10085
G1 X166.849 Y159.095 E61.15613
G1 X166.265 Y159.483 E61.19694
G1 X166.153 Y159.554 E61.20466
G1 X165.704 Y159.831 E61.23537
G1 X165.607 Y159.892 E61.24204
G1 X164.981 Y160.238 E61.28367
G1 X164.432 Y160.472 E61.31841
G1 X163.736 Y160.731 E61.36163
G1 X163.152 Y160.931 E61.39756
G1 X162.462 Y161.12 E61.4392
G1 X161.917 Y161.213 E61.47138
G1 X161.395 Y161.279 E61.50201
G1 X160.765 Y161.344 E61.53887
G1 X160.185 Y161.381 E61.5727
G1 X159.202 Y161.399 E61.62993
G1 X159.085 Y161.4 E61.63674
G1 X50.707 Y161.4 E67.9449
G1 X49.917 Y161.389 E67.99089
G1 X49.338 Y161.356 E68.02464
G1 X48.679 Y161.291 E68.06319
G1 X48.032 Y161.207 E68.10116
G1 X47.183 Y161.033 E68.15161
G1 X46.7 Y160.885 E68.18101
G1 X46.239 Y160.728 E68.20936
G1 X45.62 Y160.499 E68.24777
G1 X44.701 Y160.074 E68.3067
G1 X44.009 Y159.661 E68.35361
G1 X43.389 Y159.26 E68.39659
G1 X42.818 Y158.829 E68.43823
G1 X42.519 Y158.56 E68.46164
G1 X41.883 Y157.95 E68.51293
G1 X41.526 Y157.589 E68.54248
G1 X40.889 Y156.827 E68.60029
G1 X40.517 Y156.267 E68.63942
G1 X40.44 Y156.145 E68.64782
G1 X40.176 Y155.715 E68.67719
G1 X40.116 Y155.62 E68.68373
G1 X39.768 Y154.994 E68.72542
G1 X39.529 Y154.433 E68.76091
G1 X39.266 Y153.726 E68.80482
G1 X39.068 Y153.149 E68.84032
G1 X38.879 Y152.459 E68.88196
G1 X38.785 Y151.906 E68.91461
G1 X38.72 Y151.387 E68.94506
G1 X38.657 Y150.772 E68.98104
G1 X38.619 Y150.187 E69.01516
G1 X38.601 Y149.202 E69.0725
G1 X38.6 Y149.085 E69.07931
G1 X38.6 Y60.674 E74.2253
G1 X38.611 Y59.913 E74.2696
G1 X38.644 Y59.338 E74.30312
G1 X38.709 Y58.679 E74.34166
G1 X38.793 Y58.032 E74.37964
G1 X38.911 Y57.402 E74.41695
G1 X39.131 Y56.648 E74.46266
G1 X39.272 Y56.239 E74.48784
G1 X39.498 Y55.625 E74.52592
G1 X39.94 Y54.673 E74.58702
G1 X40.333 Y54.017 E74.63153
G1 X40.734 Y53.398 E74.67446
G1 X41.163 Y52.826 E74.71607
G1 X41.444 Y52.514 E74.74051
G1 X42.054 Y51.879 E74.79176
G1 X42.426 Y51.512 E74.82218
G1 X43.245 Y50.838 E74.88392
G1 X43.727 Y50.521 E74.9175
G1 X43.851 Y50.442 E74.92605
G1 X44.35 Y50.135 E74.96015
G1 X44.396 Y50.106 E74.96332
G1 X45.022 Y49.761 E75.00492
G1 X45.564 Y49.53 E75.03922
G1 X46.262 Y49.27 E75.08257
G1 X46.848 Y49.069 E75.11863
G1 X47.538 Y48.88 E75.16027
G1 X48.083 Y48.787 E75.19245
G1 X48.605 Y48.721 E75.22308
G1 X49.235 Y48.656 E75.25994
G1 X49.815 Y48.619 E75.29377
G1 X50.798 Y48.601 E75.35099
G1 X50.915 Y48.6 E75.3578
G1 X159.293 Y48.6 E81.66597
G1 X159.385 Y48.601 E81.67132
G1 X160.083 Y48.611 E81.71196
M204 S3000
M205 X10 Y10
G1 F2400 E75.71196
;MESH:frame.stl
G0 F3000 X159.951 Y54.335
G0 X159.951 Y55.859
G0 X157.659 Y56.739
M204 S1800
M205 X8 Y8
;TYPE:WALL-INNER
G1 F2400 E81.71196
G1 F1200 X157.659 Y56.788 E81.71481
G1 X157.49 Y56.938 E81.72796
G1 X157.018 Y57.357 E81.7647
G1 X156.47 Y58.148 E81.82071
G1 X156.13 Y59.047 E81.87665
G1 X156.043 Y59.766 E81.9188
G1 X156.015 Y60 E81.93252
G1 X156.049 Y60.286 E81.94929
G1 X156.13 Y60.953 E81.98839
G1 X156.471 Y61.852 E82.04436
G1 X157.011 Y62.633 E82.09962
G1 X157.314 Y62.906 E82.12336
G1 X157.314 Y63.057 E82.13215
G1 X158.588 Y63.728 E82.21596
G1 X159.52 Y63.956 E82.27181
G1 X159.603 Y63.956 E82.27664
G1 X160.326 Y63.956 E82.31872
G1 X160.352 Y63.956 E82.32024
G1 X160.478 Y63.956 E82.32757
G1 X161.396 Y63.73 E82.3826
G1 X161.577 Y63.641 E82.39434
G1 X162.267 Y63.278 E82.43972
G1 X162.982 Y62.643 E82.49538
G1 X163.084 Y62.495 E82.50584
G1 X163.53 Y61.852 E82.55139
G1 X163.6 Y61.667 E82.5629
G1 X163.6 Y61.852 E82.56341
G1 X163.6 Y62.635 E82.58996
G1 X163.6 Y147.365 E87.52169
G1 X163.6 Y148.148 E87.56727
G1 X163.6 Y148.335 E87.57815
G1 X163.529 Y148.148 E87.57943
G1 X163.084 Y147.504 E87.60599
G1 X162.989 Y147.367 E87.6157
G1 X162.686 Y147.094 E87.63944
G1 X162.686 Y146.943 E87.64823
G1 X161.412 Y146.272 E87.73204
G1 X160.48 Y146.044 E87.78788
G1 X160.397 Y146.044 E87.79271
G1 X159.674 Y146.044 E87.8348
G1 X159.648 Y146.044 E87.83631
G1 X159.522 Y146.044 E87.84364
G1 X158.602 Y146.27 E87.89878
G1 X157.659 Y146.739 E87.96009
G1 X157.659 Y146.788 E87.96294
G1 X157.018 Y147.357 E88.01283
G1 X156.47 Y148.148 E88.06884
G1 X156.13 Y149.047 E88.12478
G1 X156.043 Y149.766 E88.16693
G1 X156.015 Y150 E88.18065
G1 X156.049 Y150.286 E88.19742
G1 X156.13 Y150.953 E88.23652
G1 X156.471 Y151.852 E88.29249
G1 X157.011 Y152.633 E88.34775
G1 X157.314 Y152.906 E88.37149
G1 X157.314 Y153.057 E88.38028
G1 X158.345 Y153.6 E88.44811
G1 X157.314 Y153.6 E88.47615
G1 X52.58 Y153.6 E94.57222
G1 X52.267 Y153.6 E94.59044
G1 X51.655 Y153.6 E94.62606
G1 X52.267 Y153.278 E94.64006
G1 X52.501 Y153.071 E94.65462
G1 X52.982 Y152.643 E94.6921
G1 X53.53 Y151.852 E94.74811
G1 X53.87 Y150.953 E94.80405
G1 X53.957 Y150.234 E94.84621
G1 X53.985 Y150 E94.85993
G1 X53.951 Y149.714 E94.87669
G1 X53.87 Y149.047 E94.9158
G1 X53.529 Y148.148 E94.97176
G1 X52.989 Y147.367 E95.02703
G1 X52.686 Y147.094 E95.05077
G1 X52.686 Y146.943 E95.05956
G1 X51.412 Y146.272 E95.14337
G1 X50.48 Y146.044 E95.19921
G1 X50.397 Y146.044 E95.20404
G1 X49.674 Y146.044 E95.24613
G1 X49.648 Y146.044 E95.24764
G1 X49.522 Y146.044 E95.25497
G1 X48.602 Y146.27 E95.31011
G1 X47.659 Y146.739 E95.37142
G1 X47.659 Y146.788 E95.37427
G1 X47.018 Y147.357 E95.42416
G1 X46.916 Y147.505 E95.43462
G1 X46.47 Y148.148 E95.48017
G1 X46.4 Y148.333 E95.49168
G1 X46.4 Y148.148 E95.49219
G1 X46.4 Y147.365 E95.51874
G1 X46.4 Y62.635 E100.45047
G1 X46.4 Y61.852 E100.49605
G1 X46.4 Y61.665 E100.50693
G1 X46.471 Y61.852 E100.50821
G1 X46.916 Y62.496 E100.53477
G1 X47.011 Y62.633 E100.54448
G1 X47.314 Y62.906 E100.56822
G1 X47.314 Y63.057 E100.577
G1 X48.588 Y63.728 E100.66081
G1 X49.52 Y63.956 E100.71666
G1 X49.603 Y63.956 E100.72149
G1 X50.326 Y63.956 E100.76357
G1 X50.352 Y63.956 E100.76509
G1 X50.478 Y63.956 E100.77242
G1 X51.396 Y63.73 E100.82745
G1 X51.577 Y63.641 E100.83919
G1 X52.267 Y63.278 E100.88457
G1 X52.982 Y62.643 E100.94023
G1 X53.53 Y61.852 E100.99624
G1 X53.87 Y60.953 E101.05218
G1 X53.957 Y60.234 E101.09434
G1 X53.985 Y60 E101.10805
G1 X53.951 Y59.714 E101.12482
G1 X53.87 Y59.047 E101.16393
G1 X53.529 Y58.148 E101.21989
G1 X52.989 Y57.367 E101.27516
G1 X52.686 Y57.094 E101.2989
G1 X52.686 Y56.943 E101.30769
G1 X51.655 Y56.4 E101.37551
G1 X52.686 Y56.4 E101.40355
G1 X157.433 Y56.4 E107.50038
G1 X157.659 Y56.4 E107.51165
G1 X158.341 Y56.4 E107.55134
G1 X157.659 Y56.739 E107.56714
M204 S3000
M205 X10 Y10
G0 F3000 X156.64 Y59.173
G0 X156.539 Y60
G0 X156.64 Y60.827
