;FLAVOR:Marlin
;TIME:363
;Filament used: 0.364942m
;Layer height: 0.25
;MINX:79.614
;MINY:93.612
;MINZ:0.25
;MAXX:130.381
;MAXY:132.383
;MAXZ:3
;Generated with Cura_SteamEngine 4.6.0
M140 S65
M105
M190 S65
M104 S200
M105
M109 S200
M82 ;absolute extrusion mode
G21 ;metric values
G90 ;absolute positioning
M82 ;set extruder to absolute mode
M107 ;start with the fan off
G28 X0 Y0 ;move X/Y to min endstops
G28 Z0 ;move Z to min endstops
G1 Z15.0 F100 ;move the platform down 15mm
G92 E0 ;zero the extruded length
G1 F200 E3 ;extrude 3mm of feed stock
G92 E0 ;zero the extruded length again
G1 F100
G0 Y20 F100
M117 Printing...
G5
G92 E0
G92 E0
G1 F2400 E-6
;LAYER_COUNT:12
;LAYER:0
M106 S255
M204 S3000
M205 X10 Y10
G1 F600 Z0.325
G0 F3000 X120.14 Y94.796 Z0.325
M204 S1800
M205 X8 Y8
;TYPE:SKIRT
G1 F600 Z0.25
G1 F2400 E0
G1 X120.798 Y94.893 E0.03871
G1 X121.293 Y94.993 E0.06811
G1 X121.959 Y95.171 E0.10823
G1 X122.44 Y95.328 E0.13768
G1 X123.075 Y95.576 E0.17736
G1 X123.638 Y95.848 E0.21375
G1 X124.213 Y96.163 E0.25192
G1 X124.523 Y96.346 E0.27287
G1 X124.955 Y96.642 E0.30335
G1 X125.452 Y97.02 E0.33969
G1 X125.84 Y97.345 E0.36915
G1 X126.357 Y97.849 E0.41118
G1 X126.799 Y98.334 E0.44937
G1 X127.185 Y98.811 E0.48509
G1 X127.525 Y99.288 E0.51918
G1 X127.852 Y99.805 E0.55479
G1 X128.189 Y100.429 E0.59607
G1 X128.456 Y101.009 E0.63323
G1 X128.719 Y101.717 E0.67719
G1 X128.876 Y102.234 E0.70864
G1 X129.038 Y102.869 E0.74679
G1 X129.163 Y103.577 E0.78863
G1 X129.21 Y103.999 E0.81335
G1 X129.249 Y104.553 E0.84567
G1 X129.261 Y105.201 E0.8834
G1 X129.224 Y105.906 E0.92449
G1 X129.203 Y105.905 E0.92571
G1 X129.147 Y106.513 E0.96125
G1 X129.048 Y107.044 E0.99269
G1 X128.966 Y107.414 E1.01475
G1 X128.829 Y107.937 E1.04622
G1 X128.65 Y108.491 E1.0801
G1 X128.441 Y109.025 E1.11348
G1 X128.255 Y109.422 E1.139
G1 X127.937 Y110.036 E1.17924
G1 X127.642 Y110.537 E1.21309
G1 X127.344 Y110.977 E1.24402
G1 X127.029 Y111.397 E1.27457
G1 X126.667 Y111.828 E1.30734
G1 X126.28 Y112.239 E1.34019
G1 X125.935 Y112.574 E1.36818
G1 X123.95 Y114.484 E1.52852
G1 X122.071 Y116.398 E1.68464
G1 X120.254 Y118.356 E1.84011
G1 X118.481 Y120.381 E1.99677
G1 X116.781 Y122.434 E2.15192
G1 X115.116 Y124.566 E2.30937
G1 X113.769 Y126.388 E2.44126
G1 X113.233 Y127.131 E2.49458
G1 X112.867 Y127.596 E2.52902
G1 X112.487 Y128.025 E2.56238
G1 X112.033 Y128.474 E2.59955
G1 X111.459 Y128.971 E2.64374
G1 X110.96 Y129.353 E2.68032
G1 X110.455 Y129.694 E2.71579
G1 X109.838 Y130.052 E2.75731
G1 X109.15 Y130.39 E2.80192
G1 X108.506 Y130.642 E2.84217
G1 X107.884 Y130.848 E2.88031
G1 X107.262 Y131.013 E2.91777
G1 X106.35 Y131.172 E2.97165
G1 X105.758 Y131.234 E3.0063
G1 X105.167 Y131.263 E3.04074
G1 X104.655 Y131.259 E3.07054
G1 X103.922 Y131.211 E3.1133
G1 X103.246 Y131.117 E3.15302
G1 X102.741 Y131.018 E3.18297
G1 X102.186 Y130.875 E3.21633
G1 X101.495 Y130.648 E3.25867
G1 X100.642 Y130.3 E3.31229
G1 X100.19 Y130.074 E3.3417
G1 X99.427 Y129.618 E3.39344
G1 X98.761 Y129.158 E3.44055
G1 X98.153 Y128.657 E3.48641
G1 X97.784 Y128.311 E3.51585
G1 X97.497 Y128.013 E3.53993
G1 X97.229 Y127.707 E3.56361
G1 X96.83 Y127.215 E3.60048
G1 X96.625 Y126.947 E3.62012
G1 X96.167 Y126.314 E3.6656
G1 X94.573 Y124.173 E3.82096
G1 X92.895 Y122.047 E3.9786
G1 X91.202 Y120.022 E4.13223
G1 X89.402 Y117.99 E4.29024
G1 X87.58 Y116.045 E4.44536
G1 X85.69 Y114.14 E4.60155
G1 X84.826 Y113.321 E4.67085
G1 X84.779 Y113.277 E4.67459
G1 X83.79 Y112.316 E4.75486
G1 X83.231 Y111.708 E4.80293
G1 X82.833 Y111.218 E4.83967
G1 X82.46 Y110.702 E4.87673
G1 X82.185 Y110.266 E4.90674
G1 X81.865 Y109.694 E4.94489
G1 X81.63 Y109.206 E4.97641
G1 X81.41 Y108.684 E5.00938
G1 X81.186 Y108.028 E5.04973
G1 X80.99 Y107.288 E5.09429
G1 X80.844 Y106.523 E5.13962
G1 X80.787 Y106.069 E5.16625
G1 X80.747 Y105.519 E5.19835
G1 X80.734 Y104.885 E5.23526
G1 X80.759 Y104.206 E5.27481
G1 X80.808 Y103.716 E5.30347
G1 X80.976 Y102.796 E5.3579
G1 X81.095 Y102.296 E5.38782
G1 X81.291 Y101.648 E5.42722
G1 X81.514 Y101.056 E5.46405
G1 X81.812 Y100.408 E5.50556
G1 X82.061 Y99.94 E5.53642
G1 X82.348 Y99.466 E5.56867
G1 X82.636 Y99.037 E5.59874
G1 X83.151 Y98.375 E5.64756
G1 X83.495 Y97.986 E5.67779
G1 X84.053 Y97.443 E5.7231
G1 X84.554 Y97.014 E5.7615
G1 X85.027 Y96.653 E5.79613
G1 X85.501 Y96.332 E5.82945
G1 X86.027 Y96.017 E5.86514
G1 X86.483 Y95.78 E5.89505
G1 X86.961 Y95.565 E5.92555
G1 X87.553 Y95.332 E5.96258
G1 X88.103 Y95.15 E5.9963
G1 X88.854 Y94.96 E6.04139
G1 X89.58 Y94.831 E6.08431
G1 X90.159 Y94.764 E6.11824
G1 X90.663 Y94.739 E6.14761
G1 X91.352 Y94.737 E6.18771
G1 X91.794 Y94.756 E6.21346
G1 X94.143 Y94.885 E6.35039
G1 X96.813 Y94.956 E6.50586
G1 X99.482 Y94.952 E6.66121
G1 X102.197 Y94.871 E6.81931
G1 X104.342 Y94.752 E6.94435
G1 X105.067 Y94.732 E6.98656
G1 X105.728 Y94.753 E7.02506
G1 X105.794 Y94.756 E7.0289
G1 X108.143 Y94.885 E7.16583
G1 X110.813 Y94.956 E7.32129
G1 X113.482 Y94.952 E7.47664
G1 X116.197 Y94.871 E7.63474
G1 X118.342 Y94.752 E7.75978
G1 X119.067 Y94.732 E7.802
G1 X119.345 Y94.736 E7.81818
G1 X120.14 Y94.796 E7.86459
M204 S3000
M205 X10 Y10
G0 F3000 X120.192 Y94.238
M204 S1800
M205 X8 Y8
G1 F2400 X120.893 Y94.341 E7.90583
G1 X121.407 Y94.445 E7.93635
G1 X122.133 Y94.638 E7.98007
G1 X122.614 Y94.795 E8.00952
G1 X123.087 Y94.973 E8.03894
G1 X123.621 Y95.211 E8.07297
G1 X123.907 Y95.357 E8.09166
G1 X124.482 Y95.672 E8.12982
G1 X124.816 Y95.869 E8.15239
G1 X125.294 Y96.197 E8.18613
G1 X125.791 Y96.575 E8.22248
G1 X126.22 Y96.934 E8.25504
G1 X126.77 Y97.472 E8.29982
G1 X127.212 Y97.957 E8.33801
G1 X127.64 Y98.484 E8.37753
G1 X127.988 Y98.973 E8.41246
G1 X128.067 Y99.089 E8.42063
G1 X128.341 Y99.532 E8.45095
G1 X128.693 Y100.186 E8.49418
G1 X128.976 Y100.8 E8.53353
G1 X129.084 Y101.068 E8.55035
G1 X129.255 Y101.554 E8.58034
G1 X129.412 Y102.071 E8.61179
G1 X129.583 Y102.738 E8.65186
G1 X129.683 Y103.262 E8.68291
G1 X129.769 Y103.96 E8.72385
G1 X129.808 Y104.514 E8.75617
G1 X129.821 Y105.203 E8.79628
G1 X129.782 Y105.944 E8.83947
G1 X129.697 Y106.615 E8.87884
G1 X129.6 Y107.135 E8.90963
G1 X129.507 Y107.556 E8.93473
G1 X129.37 Y108.079 E8.96619
G1 X129.173 Y108.692 E9.00367
G1 X128.988 Y109.168 E9.0334
G1 X128.753 Y109.68 E9.06619
G1 X128.435 Y110.294 E9.10643
G1 X128.108 Y110.847 E9.14383
G1 X127.798 Y111.305 E9.17602
G1 X127.462 Y111.752 E9.20857
G1 X127.08 Y112.205 E9.24306
G1 X126.671 Y112.639 E9.27777
G1 X126.312 Y112.988 E9.30691
G1 X124.36 Y114.866 E9.46457
G1 X122.467 Y116.794 E9.62184
G1 X120.672 Y118.728 E9.77542
G1 X118.903 Y120.748 E9.93171
G1 X117.223 Y122.778 E10.08508
G1 X115.579 Y124.883 E10.24054
G1 X114.183 Y126.771 E10.37721
G1 X113.687 Y127.459 E10.42658
G1 X113.302 Y127.949 E10.46285
G1 X112.9 Y128.402 E10.4981
G1 X112.408 Y128.89 E10.53844
G1 X112.207 Y129.072 E10.55422
G1 X111.799 Y129.415 E10.58524
G1 X111.3 Y129.797 E10.62182
G1 X110.742 Y130.175 E10.66105
G1 X110.097 Y130.549 E10.70445
G1 X109.366 Y130.906 E10.7518
G1 X108.682 Y131.174 E10.79456
G1 X108.06 Y131.38 E10.83269
G1 X107.372 Y131.562 E10.87412
G1 X106.948 Y131.647 E10.89929
G1 X106.408 Y131.729 E10.93108
G1 X105.816 Y131.791 E10.96572
G1 X105.162 Y131.823 E11.00384
G1 X104.65 Y131.819 E11.03364
G1 X103.872 Y131.768 E11.07902
G1 X103.161 Y131.671 E11.12079
G1 X102.622 Y131.565 E11.15276
G1 X102.041 Y131.416 E11.18767
G1 X101.309 Y131.176 E11.23251
G1 X100.836 Y130.995 E11.26199
G1 X100.152 Y130.684 E11.30572
G1 X99.523 Y130.337 E11.34753
G1 X98.933 Y129.964 E11.38816
G1 X98.419 Y129.601 E11.42479
G1 X98.015 Y129.278 E11.4549
G1 X97.524 Y128.839 E11.49323
G1 X97.09 Y128.398 E11.52925
G1 X96.794 Y128.059 E11.55544
G1 X96.395 Y127.567 E11.59231
G1 X96.172 Y127.275 E11.6137
G1 X95.76 Y126.706 E11.65458
G1 X94.111 Y124.49 E11.81536
G1 X92.488 Y122.434 E11.96782
G1 X90.751 Y120.357 E12.12542
G1 X88.987 Y118.366 E12.28025
G1 X87.187 Y116.444 E12.43352
G1 X85.319 Y114.562 E12.58786
G1 X84.44 Y113.728 E12.65839
G1 X84.389 Y113.678 E12.66254
G1 X83.4 Y112.717 E12.74281
G1 X82.796 Y112.061 E12.79471
G1 X82.398 Y111.571 E12.83145
G1 X81.987 Y111.002 E12.87231
G1 X81.704 Y110.552 E12.90325
G1 X81.362 Y109.94 E12.94406
G1 X81.118 Y109.432 E12.97686
G1 X80.889 Y108.89 E13.01111
G1 X80.654 Y108.202 E13.05342
G1 X80.446 Y107.419 E13.10058
G1 X80.374 Y107.093 E13.12001
G1 X80.288 Y106.593 E13.14954
G1 X80.231 Y106.139 E13.17617
G1 X80.187 Y105.531 E13.21165
G1 X80.174 Y104.897 E13.24856
G1 X80.2 Y104.171 E13.29085
G1 X80.252 Y103.651 E13.32127
G1 X80.428 Y102.684 E13.37847
G1 X80.551 Y102.162 E13.40969
G1 X80.764 Y101.457 E13.45256
G1 X80.999 Y100.836 E13.4912
G1 X81.309 Y100.162 E13.53438
G1 X81.581 Y99.653 E13.56798
G1 X81.878 Y99.162 E13.60138
G1 X82.184 Y98.706 E13.63334
G1 X82.501 Y98.286 E13.66397
G1 X82.927 Y97.778 E13.70256
G1 X83.292 Y97.389 E13.7336
G1 X83.689 Y97.018 E13.76523
G1 X84.19 Y96.589 E13.80362
G1 X84.713 Y96.189 E13.84195
G1 X85.187 Y95.868 E13.87527
G1 X85.766 Y95.521 E13.91456
G1 X86.238 Y95.276 E13.94551
G1 X86.756 Y95.044 E13.97855
G1 X87.348 Y94.811 E14.01558
G1 X87.957 Y94.609 E14.05292
G1 X88.746 Y94.41 E14.10028
G1 X89.511 Y94.275 E14.1455
G1 X90.115 Y94.206 E14.18088
G1 X90.641 Y94.179 E14.21154
G1 X91.376 Y94.177 E14.25432
G1 X91.824 Y94.197 E14.28042
G1 X94.152 Y94.325 E14.41613
G1 X96.827 Y94.396 E14.57188
G1 X99.5 Y94.392 E14.72747
G1 X102.148 Y94.313 E14.88166
G1 X104.311 Y94.193 E15.00775
G1 X105.061 Y94.172 E15.05143
G1 X105.752 Y94.193 E15.09166
G1 X108.152 Y94.325 E15.23157
G1 X110.827 Y94.396 E15.38732
G1 X113.5 Y94.392 E15.5429
G1 X116.148 Y94.313 E15.6971
G1 X118.311 Y94.193 E15.82319
G1 X119.061 Y94.172 E15.86686
G1 X119.368 Y94.177 E15.88473
G1 X120.192 Y94.238 E15.93283
M204 S3000
M205 X10 Y10
G0 F3000 X120.244 Y93.681
M204 S1800
M205 X8 Y8
G1 F2400 X120.988 Y93.789 E15.97658
G1 X121.521 Y93.897 E16.00824
G1 X122.307 Y94.106 E16.05558
G1 X122.788 Y94.263 E16.08503
G1 X123.306 Y94.457 E16.11722
G1 X123.77 Y94.661 E16.14673
G1 X124.176 Y94.866 E16.1732
G1 X124.751 Y95.181 E16.21136
G1 X125.11 Y95.392 E16.2356
G1 X125.633 Y95.751 E16.27252
G1 X126.13 Y96.129 E16.30886
G1 X126.6 Y96.523 E16.34456
G1 X126.798 Y96.706 E16.36025
G1 X127.184 Y97.095 E16.39215
G1 X127.626 Y97.58 E16.43035
G1 X128.094 Y98.158 E16.47363
G1 X128.451 Y98.657 E16.50935
G1 X128.53 Y98.773 E16.51751
G1 X128.83 Y99.26 E16.55081
G1 X129.198 Y99.942 E16.59591
G1 X129.495 Y100.591 E16.63746
G1 X129.603 Y100.859 E16.65427
G1 X129.791 Y101.391 E16.68712
G1 X129.948 Y101.908 E16.71856
G1 X130.127 Y102.608 E16.76062
G1 X130.237 Y103.182 E16.79464
G1 X130.268 Y103.417 E16.80843
G1 X130.327 Y103.921 E16.83797
G1 X130.366 Y104.475 E16.8703
G1 X130.381 Y105.205 E16.91279
G1 X130.341 Y105.983 E16.95814
G1 X130.248 Y106.718 E17.00126
G1 X130.149 Y107.249 E17.0327
G1 X130.132 Y107.246 E17.0337
G1 X130.049 Y107.698 E17.06045
G1 X129.912 Y108.221 E17.09192
G1 X129.696 Y108.893 E17.13301
G1 X129.505 Y109.384 E17.16367
G1 X129.475 Y109.456 E17.16821
G1 X129.25 Y109.937 E17.19912
G1 X128.932 Y110.551 E17.23937
G1 X128.574 Y111.158 E17.28038
G1 X128.252 Y111.633 E17.31378
G1 X127.895 Y112.106 E17.34828
G1 X127.494 Y112.583 E17.38455
G1 X127.063 Y113.039 E17.42107
G1 X126.712 Y113.381 E17.44959
G1 X124.717 Y115.301 E17.61075
G1 X122.899 Y117.152 E17.76177
G1 X121.074 Y119.118 E17.9179
G1 X119.343 Y121.095 E18.07085
G1 X117.652 Y123.138 E18.22521
G1 X116.018 Y125.231 E18.37976
G1 X114.633 Y127.104 E18.51535
G1 X114.141 Y127.786 E18.5643
G1 X113.736 Y128.302 E18.60248
G1 X113.314 Y128.78 E18.63959
G1 X112.782 Y129.306 E18.68314
G1 X112.586 Y129.484 E18.69855
G1 X112.139 Y129.86 E18.73255
G1 X111.64 Y130.242 E18.76912
G1 X111.029 Y130.656 E18.81208
G1 X110.356 Y131.046 E18.85736
G1 X110.072 Y131.194 E18.876
G1 X109.582 Y131.423 E18.90748
G1 X108.858 Y131.705 E18.9527
G1 X108.236 Y131.911 E18.99084
G1 X107.482 Y132.111 E19.03624
G1 X107.058 Y132.196 E19.06141
G1 X106.467 Y132.286 E19.09621
G1 X105.875 Y132.348 E19.13086
G1 X105.158 Y132.383 E19.17264
G1 X104.646 Y132.379 E19.20244
G1 X104.12 Y132.353 E19.23309
G1 X103.429 Y132.278 E19.27355
G1 X102.682 Y132.151 E19.31765
G1 X101.896 Y131.957 E19.36478
G1 X101.123 Y131.705 E19.4121
G1 X100.632 Y131.517 E19.4427
G1 X100.151 Y131.306 E19.47327
G1 X99.655 Y131.058 E19.50555
G1 X98.835 Y130.568 E19.56115
G1 X98.393 Y130.274 E19.59205
G1 X97.917 Y129.921 E19.62654
G1 X97.421 Y129.505 E19.66422
G1 X97.001 Y129.112 E19.6977
G1 X96.684 Y128.783 E19.72429
G1 X96.359 Y128.412 E19.753
G1 X95.96 Y127.92 E19.78987
G1 X95.718 Y127.604 E19.81304
G1 X95.311 Y127.041 E19.85347
G1 X93.669 Y124.836 E20.01349
G1 X92.031 Y122.76 E20.16741
G1 X90.333 Y120.728 E20.32154
G1 X88.59 Y118.761 E20.47451
G1 X86.76 Y116.808 E20.63029
G1 X84.933 Y114.966 E20.7813
G1 X84.055 Y114.134 E20.8517
G1 X83.999 Y114.08 E20.85623
G1 X83.01 Y113.119 E20.9365
G1 X82.666 Y112.762 E20.96535
G1 X82.361 Y112.414 E20.99229
G1 X81.963 Y111.924 E21.02903
G1 X81.824 Y111.747 E21.04213
G1 X81.515 Y111.303 E21.07362
G1 X81.223 Y110.839 E21.10553
G1 X81.108 Y110.646 E21.1186
G1 X80.859 Y110.187 E21.149
G1 X80.606 Y109.659 E21.18308
G1 X80.368 Y109.095 E21.21871
G1 X80.122 Y108.377 E21.26288
G1 X79.981 Y107.882 E21.29284
G1 X79.826 Y107.211 E21.33292
G1 X79.733 Y106.662 E21.36533
G1 X79.676 Y106.208 E21.39197
G1 X79.627 Y105.542 E21.43084
G1 X79.614 Y104.908 E21.46775
G1 X79.626 Y104.371 E21.49901
G1 X79.671 Y103.802 E21.53223
G1 X79.696 Y103.587 E21.54483
G1 X79.782 Y103.048 E21.5766
G1 X79.934 Y102.327 E21.61949
G1 X80.098 Y101.698 E21.65732
G1 X80.348 Y100.96 E21.70268
G1 X80.565 Y100.426 E21.73623
G1 X80.802 Y99.923 E21.76859
G1 X80.84 Y99.845 E21.77364
G1 X81.1 Y99.365 E21.80542
G1 X81.407 Y98.858 E21.83991
G1 X81.732 Y98.375 E21.8738
G1 X82.067 Y97.932 E21.90613
G1 X82.513 Y97.4 E21.94653
G1 X82.898 Y96.991 E21.97923
G1 X83.324 Y96.593 E22.01316
G1 X83.825 Y96.164 E22.05155
G1 X84.399 Y95.726 E22.09358
G1 X84.873 Y95.405 E22.1269
G1 X85.505 Y95.026 E22.16979
G1 X85.994 Y94.772 E22.20186
G1 X86.551 Y94.523 E22.23738
G1 X87.143 Y94.29 E22.27441
G1 X87.81 Y94.069 E22.3153
G1 X88.639 Y93.861 E22.36505
G1 X89.442 Y93.719 E22.41252
G1 X90.071 Y93.648 E22.44936
G1 X90.619 Y93.62 E22.4813
G1 X91.4 Y93.618 E22.52676
G1 X91.855 Y93.638 E22.55327
G1 X94.162 Y93.765 E22.68775
G1 X96.841 Y93.836 E22.84373
G1 X99.483 Y93.832 E22.99751
G1 X102.14 Y93.752 E23.15223
G1 X104.28 Y93.634 E23.27698
G1 X104.794 Y93.615 E23.30692
G1 X105.4 Y93.618 E23.34219
G1 X105.855 Y93.638 E23.3687
G1 X108.162 Y93.765 E23.50319
G1 X110.841 Y93.836 E23.65917
G1 X113.483 Y93.832 E23.81295
G1 X116.14 Y93.752 E23.96767
G1 X118.28 Y93.634 E24.09242
G1 X118.794 Y93.615 E24.12236
G1 X119.054 Y93.612 E24.13749
G1 X119.391 Y93.617 E24.15711
G1 X120.244 Y93.681 E24.2069
M204 S3000
M205 X10 Y10
G1 F2400 E18.2069
;MESH:pcb_standoff.stl(1)
G0 F3000 X102.667 Y99.839
G0 X96.325 Y103.092
G0 X94.913 Y103.661
G0 X91.881 Y101.513
M204 S1800
M205 X8 Y8
;TYPE:WALL-INNER
G1 F2400 E24.2069
G1 F1200 X92.253 Y101.629 E24.22958
G1 X92.622 Y101.791 E24.25304
G1 X92.96 Y101.985 E24.27572
G1 X93.274 Y102.215 E24.29837
G1 X93.582 Y102.5 E24.3228
G1 X93.834 Y102.789 E24.34512
G1 X94.062 Y103.118 E24.36842
G1 X94.248 Y103.463 E24.39123
G1 X94.401 Y103.839 E24.41486
G1 X94.508 Y104.22 E24.43789
G1 X94.573 Y104.612 E24.46102
G1 X94.593 Y104.997 E24.48346
G1 X94.573 Y105.404 E24.50718
G1 X94.51 Y105.778 E24.52925
G1 X94.402 Y106.162 E24.55247
G1 X94.254 Y106.526 E24.57534
G1 X94.06 Y106.886 E24.59914
G1 X93.838 Y107.206 E24.62181
G1 X93.575 Y107.508 E24.64512
G1 X93.287 Y107.774 E24.66794
G1 X92.962 Y108.012 E24.69139
G1 X92.62 Y108.21 E24.71439
G1 X92.251 Y108.372 E24.73785
G1 X91.881 Y108.487 E24.7604
G1 X91.489 Y108.564 E24.78365
G1 X91.095 Y108.595 E24.80665
G1 X90.701 Y108.586 E24.82959
G1 X90.31 Y108.531 E24.85257
G1 X89.925 Y108.435 E24.87567
G1 X89.558 Y108.298 E24.89847
G1 X89.203 Y108.118 E24.92164
G1 X88.856 Y107.893 E24.94571
G1 X88.566 Y107.655 E24.96755
G1 X88.281 Y107.36 E24.99142
G1 X88.038 Y107.049 E25.01439
G1 X87.834 Y106.716 E25.03712
G1 X87.659 Y106.345 E25.061
G1 X87.537 Y105.99 E25.08285
G1 X87.448 Y105.587 E25.10687
G1 X87.404 Y105.189 E25.13018
G1 X87.404 Y104.803 E25.15264
