;FLAVOR:Marlin
;TIME:1686
;Filament used: 1.74612m
;Layer height: 0.25
;MINX:38.636
;MINY:93.6
;MINZ:0.25
;MAXX:171.364
;MAXY:132.4
;MAXZ:2.5
;Generated with Cura_SteamEngine 4.6.0
M140 S65
M105
M190 S65
M104 S200
M105
M109 S200
M82 ;absolute extrusion mode
G21 ;metric values
G90 ;absolute positioning
M82 ;set extruder to absolute mode
M107 ;start with the fan off
G28 X0 Y0 ;move X/Y to min endstops
G28 Z0 ;move Z to min endstops
G1 Z15.0 F100 ;move the platform down 15mm
G92 E0 ;zero the extruded length
G1 F200 E3 ;extrude 3mm of feed stock
G92 E0 ;zero the extruded length again
G1 F100
G0 Y20 F100
M117 Printing...
G5
G92 E0
G92 E0
G1 F2400 E-6
;LAYER_COUNT:10
;LAYER:0
M106 S255
M204 S3000
M205 X10 Y10
G1 F600 Z0.325
G0 F3000 X160.016 Y94.73 Z0.325
M204 S1800
M205 X8 Y8
;TYPE:SKIRT
G1 F600 Z0.25
G1 F2400 E0
G1 X160.48 Y94.756 E0.02705
G1 X161.34 Y94.844 E0.07737
G1 X161.928 Y94.925 E0.11192
G1 X162.564 Y95.058 E0.14973
G1 X162.954 Y95.182 E0.17355
G1 X163.688 Y95.446 E0.21896
G1 X164.255 Y95.669 E0.25442
G1 X164.841 Y95.948 E0.2922
G1 X165.204 Y96.168 E0.3169
G1 X165.821 Y96.577 E0.35999
G1 X166.345 Y96.945 E0.39726
G1 X166.756 Y97.268 E0.42768
G1 X167.136 Y97.628 E0.45815
G1 X167.488 Y98.006 E0.48822
G1 X168.102 Y98.717 E0.54289
G1 X168.275 Y98.926 E0.55869
G1 X168.703 Y99.567 E0.60355
G1 X168.949 Y100.011 E0.63309
G1 X169.354 Y100.804 E0.68492
G1 X169.617 Y101.398 E0.72273
G1 X169.79 Y101.948 E0.75629
G1 X169.91 Y102.415 E0.78436
G1 X170.089 Y103.165 E0.82924
G1 X170.2 Y103.805 E0.86704
G1 X170.239 Y104.447 E0.90448
G1 X170.243 Y104.99 E0.93609
G1 X170.233 Y105.665 E0.97538
G1 X170.205 Y106.185 E1.00569
G1 X170.049 Y108.946 E1.16665
G1 X169.972 Y111.618 E1.32224
G1 X169.972 Y114.291 E1.47782
G1 X170.047 Y116.991 E1.63504
G1 X170.163 Y119.147 E1.76071
G1 X170.224 Y120.087 E1.81554
G1 X170.244 Y120.855 E1.86025
G1 X170.233 Y121.671 E1.90775
G1 X170.151 Y122.527 E1.95781
G1 X170.036 Y123.083 E1.99085
G1 X169.913 Y123.585 E2.02094
G1 X169.776 Y124.102 E2.05207
G1 X169.57 Y124.718 E2.08987
G1 X169.394 Y125.107 E2.11472
G1 X169.016 Y125.86 E2.16377
G1 X168.732 Y126.381 E2.1983
G1 X168.382 Y126.928 E2.2361
G1 X168.128 Y127.25 E2.25997
G1 X167.65 Y127.809 E2.30278
G1 X167.243 Y128.259 E2.3381
G1 X166.776 Y128.71 E2.37589
G1 X166.432 Y128.98 E2.40134
G1 X165.718 Y129.494 E2.45255
G1 X165.306 Y129.774 E2.48154
G1 X164.745 Y130.103 E2.5194
G1 X164.329 Y130.291 E2.54597
G1 X163.639 Y130.568 E2.58924
G1 X163.506 Y130.619 E2.59754
G1 X163.031 Y130.795 E2.62702
G1 X162.41 Y130.983 E2.66479
G1 X161.62 Y131.118 E2.71143
G1 X161.448 Y131.14 E2.72153
G1 X160.582 Y131.237 E2.77225
G1 X159.908 Y131.276 E2.81154
G1 X159.629 Y131.28 E2.82778
G1 X50.707 Y131.28 E9.16762
G1 X49.996 Y131.27 E9.209
G1 X49.53 Y131.243 E9.23617
G1 X48.753 Y131.163 E9.28164
G1 X48.09 Y131.076 E9.32056
G1 X47.312 Y130.909 E9.36687
G1 X46.783 Y130.733 E9.39932
G1 X46.314 Y130.558 E9.42846
G1 X45.745 Y130.33 E9.46414
G1 X45.158 Y130.052 E9.50194
G1 X44.796 Y129.832 E9.5266
G1 X44.179 Y129.423 E9.56969
G1 X43.648 Y129.05 E9.60746
G1 X43.236 Y128.726 E9.63796
G1 X42.861 Y128.371 E9.66802
G1 X42.509 Y127.991 E9.69817
G1 X41.896 Y127.282 E9.75272
G1 X41.502 Y126.766 E9.79051
G1 X41.199 Y126.26 E9.82484
G1 X40.844 Y125.58 E9.86949
G1 X40.647 Y125.2 E9.8944
G1 X40.383 Y124.606 E9.93224
G1 X40.224 Y124.103 E9.96294
G1 X40.09 Y123.585 E9.99408
G1 X39.911 Y122.835 E10.03896
G1 X39.8 Y122.195 E10.07677
G1 X39.764 Y121.641 E10.10908
G1 X39.757 Y121.01 E10.14581
G1 X39.767 Y120.335 E10.18511
G1 X39.795 Y119.815 E10.21542
G1 X39.952 Y117.047 E10.37679
G1 X40.028 Y114.366 E10.5329
G1 X40.028 Y111.709 E10.68755
G1 X39.952 Y109.003 E10.84512
G1 X39.837 Y106.853 E10.97044
G1 X39.776 Y105.913 E11.02526
G1 X39.756 Y105.145 E11.06998
G1 X39.767 Y104.329 E11.11748
G1 X39.845 Y103.497 E11.16612
G1 X39.946 Y103.001 E11.19558
G1 X40.089 Y102.408 E11.23109
G1 X40.224 Y101.898 E11.26179
G1 X40.43 Y101.282 E11.2996
G1 X40.606 Y100.893 E11.32445
G1 X40.984 Y100.14 E11.37349
G1 X41.272 Y99.613 E11.40845
G1 X41.622 Y99.066 E11.44625
G1 X41.875 Y98.747 E11.46995
G1 X42.356 Y98.185 E11.513
G1 X42.757 Y97.742 E11.54778
G1 X43.224 Y97.29 E11.58561
G1 X43.57 Y97.018 E11.61123
G1 X44.283 Y96.505 E11.66235
G1 X44.694 Y96.226 E11.69127
G1 X45.255 Y95.897 E11.72912
G1 X45.67 Y95.71 E11.75561
G1 X46.362 Y95.432 E11.79902
G1 X46.498 Y95.379 E11.80752
G1 X46.971 Y95.204 E11.83687
G1 X47.593 Y95.017 E11.87468
G1 X48.38 Y94.882 E11.92115
G1 X48.552 Y94.86 E11.93125
G1 X49.418 Y94.763 E11.98197
G1 X50.092 Y94.724 E12.02126
G1 X50.371 Y94.72 E12.0375
G1 X159.293 Y94.72 E18.37733
G1 X159.366 Y94.721 E18.38158
G1 X160.016 Y94.73 E18.41942
M204 S3000
M205 X10 Y10
G0 F3000 X160.024 Y94.17
M204 S1800
M205 X8 Y8
G1 F2400 X160.537 Y94.199 E18.44933
G1 X161.397 Y94.287 E18.49965
G1 X162.008 Y94.371 E18.53554
G1 X162.678 Y94.509 E18.57536
G1 X163.144 Y94.655 E18.60378
G1 X163.878 Y94.919 E18.64919
G1 X164.463 Y95.15 E18.68579
G1 X165.081 Y95.441 E18.72555
G1 X165.514 Y95.701 E18.75495
G1 X166.131 Y96.11 E18.79804
G1 X166.669 Y96.488 E18.83631
G1 X167.093 Y96.819 E18.86762
G1 X167.121 Y96.843 E18.86976
G1 X167.541 Y97.241 E18.90344
G1 X167.907 Y97.635 E18.93474
G1 X168.526 Y98.351 E18.98983
G1 X168.695 Y98.554 E19.00521
G1 X169.19 Y99.291 E19.05688
G1 X169.442 Y99.746 E19.08716
G1 X169.669 Y100.195 E19.11644
G1 X169.851 Y100.546 E19.13945
G1 X170.13 Y101.17 E19.17924
G1 X170.332 Y101.808 E19.21819
G1 X170.454 Y102.285 E19.24685
G1 X170.633 Y103.035 E19.29173
G1 X170.753 Y103.708 E19.33152
G1 X170.792 Y104.226 E19.36175
G1 X170.804 Y104.839 E19.39744
G1 X170.803 Y104.999 E19.40675
G1 X170.793 Y105.674 E19.44605
G1 X170.762 Y106.256 E19.47997
G1 X170.609 Y108.957 E19.63743
G1 X170.532 Y111.634 E19.79331
G1 X170.532 Y114.275 E19.94703
G1 X170.607 Y116.952 E20.10291
G1 X170.725 Y119.157 E20.23144
G1 X170.783 Y120.051 E20.28358
G1 X170.804 Y120.849 E20.33004
G1 X170.803 Y120.998 E20.33872
G1 X170.793 Y121.68 E20.37842
G1 X170.702 Y122.626 E20.43373
G1 X170.602 Y123.116 E20.46284
G1 X170.457 Y123.72 E20.499
G1 X170.317 Y124.247 E20.53074
G1 X170.102 Y124.895 E20.57047
G1 X169.894 Y125.358 E20.60002
G1 X169.516 Y126.111 E20.64906
G1 X169.222 Y126.653 E20.68495
G1 X168.856 Y127.23 E20.72472
G1 X168.554 Y127.614 E20.75315
G1 X168.076 Y128.173 E20.79596
G1 X167.656 Y128.637 E20.83239
G1 X167.166 Y129.113 E20.87215
G1 X166.759 Y129.435 E20.90236
G1 X166.045 Y129.949 E20.95357
G1 X165.618 Y130.239 E20.98361
G1 X165.029 Y130.586 E21.0234
G1 X164.538 Y130.811 E21.05484
G1 X163.848 Y131.088 E21.09812
G1 X163.226 Y131.32 E21.13676
G1 X162.573 Y131.52 E21.17651
G1 X162.037 Y131.623 E21.20828
G1 X161.51 Y131.697 E21.23925
G1 X160.644 Y131.794 E21.28997
G1 X159.927 Y131.836 E21.33178
G1 X159.633 Y131.84 E21.34889
G1 X50.707 Y131.84 E27.68895
G1 X49.988 Y131.83 E27.73081
G1 X49.473 Y131.8 E27.76083
G1 X48.696 Y131.72 E27.8063
G1 X48.014 Y131.631 E27.84633
G1 X47.154 Y131.447 E27.89752
G1 X46.599 Y131.262 E27.93157
G1 X46.117 Y131.082 E27.96152
G1 X45.536 Y130.85 E27.99793
G1 X44.918 Y130.559 E28.03769
G1 X44.486 Y130.299 E28.06704
G1 X43.869 Y129.89 E28.11013
G1 X43.324 Y129.506 E28.14893
G1 X42.869 Y129.149 E28.18259
G1 X42.846 Y129.129 E28.18437
G1 X42.457 Y128.758 E28.21566
G1 X42.09 Y128.362 E28.24708
G1 X42.047 Y128.314 E28.25083
G1 X41.472 Y127.649 E28.302
G1 X41.057 Y127.107 E28.34173
G1 X40.712 Y126.537 E28.38052
G1 X40.475 Y126.094 E28.40976
G1 X40.15 Y125.458 E28.45133
G1 X39.871 Y124.834 E28.49112
G1 X39.683 Y124.245 E28.5271
G1 X39.546 Y123.715 E28.55896
G1 X39.367 Y122.965 E28.60384
G1 X39.247 Y122.292 E28.64363
G1 X39.205 Y121.663 E28.68033
G1 X39.196 Y121.156 E28.70984
G1 X39.197 Y121.001 E28.71886
G1 X39.207 Y120.326 E28.75816
G1 X39.238 Y119.744 E28.79208
G1 X39.392 Y117.031 E28.95025
G1 X39.468 Y114.366 E29.10543
G1 X39.468 Y111.725 E29.25915
G1 X39.393 Y109.04 E29.41549
G1 X39.274 Y106.824 E29.54466
G1 X39.217 Y105.949 E29.59569
G1 X39.196 Y105.151 E29.64216
G1 X39.197 Y105.002 E29.65083
G1 X39.207 Y104.321 E29.69047
G1 X39.293 Y103.4 E29.74431
G1 X39.398 Y102.884 E29.77496
G1 X39.545 Y102.271 E29.81165
G1 X39.683 Y101.753 E29.84286
G1 X39.898 Y101.105 E29.88259
G1 X40.106 Y100.642 E29.91214
G1 X40.484 Y99.889 E29.96118
G1 X40.782 Y99.341 E29.99749
G1 X41.149 Y98.765 E30.03724
G1 X41.449 Y98.383 E30.06551
G1 X41.93 Y97.821 E30.10857
G1 X42.343 Y97.364 E30.14442
G1 X42.833 Y96.888 E30.18418
G1 X43.243 Y96.564 E30.2146
G1 X43.956 Y96.051 E30.26572
G1 X44.382 Y95.761 E30.29572
G1 X44.971 Y95.414 E30.33551
G1 X45.461 Y95.19 E30.36687
G1 X46.153 Y94.912 E30.41028
G1 X46.304 Y94.854 E30.41969
G1 X46.777 Y94.679 E30.44905
G1 X47.43 Y94.48 E30.48878
G1 X47.963 Y94.377 E30.52038
G1 X48.49 Y94.303 E30.55135
G1 X49.356 Y94.206 E30.60207
G1 X50.073 Y94.164 E30.64388
G1 X50.367 Y94.16 E30.66099
G1 X159.293 Y94.16 E37.00105
G1 X159.374 Y94.161 E37.00577
G1 X160.024 Y94.17 E37.04361
M204 S3000
M205 X10 Y10
G0 F3000 X160.032 Y93.61
M204 S1800
M205 X8 Y8
G1 F2400 X160.594 Y93.642 E37.07637
G1 X161.454 Y93.73 E37.12669
G1 X162.089 Y93.817 E37.16399
G1 X162.79 Y93.959 E37.20563
G1 X163.333 Y94.128 E37.23873
G1 X164.067 Y94.392 E37.28413
G1 X164.672 Y94.63 E37.32197
G1 X165.32 Y94.933 E37.36361
G1 X165.823 Y95.235 E37.39775
G1 X166.44 Y95.644 E37.44084
G1 X166.993 Y96.032 E37.48016
G1 X167.457 Y96.394 E37.51441
G1 X167.485 Y96.418 E37.51656
G1 X167.946 Y96.854 E37.55349
G1 X168.326 Y97.264 E37.58603
G1 X168.378 Y97.323 E37.59061
G1 X168.95 Y97.985 E37.64153
G1 X169.113 Y98.181 E37.65637
G1 X169.677 Y99.015 E37.71497
G1 X169.935 Y99.481 E37.74597
G1 X170.349 Y100.288 E37.79877
G1 X170.642 Y100.94 E37.84037
G1 X170.809 Y101.436 E37.87083
G1 X170.962 Y102.006 E37.90519
G1 X170.999 Y102.155 E37.91412
G1 X171.178 Y102.905 E37.959
G1 X171.305 Y103.609 E38.00064
G1 X171.351 Y104.199 E38.03508
G1 X171.363 Y104.832 E38.07194
G1 X171.363 Y105.007 E38.08212
G1 X171.353 Y105.682 E38.12141
G1 X171.323 Y106.248 E38.1544
G1 X171.167 Y109.005 E38.31513
G1 X171.092 Y111.615 E38.46711
G1 X171.092 Y114.259 E38.62101
G1 X171.167 Y116.945 E38.77741
G1 X171.281 Y119.075 E38.90156
G1 X171.342 Y120.015 E38.95639
G1 X171.364 Y120.843 E39.0046
G1 X171.363 Y121.006 E39.01409
G1 X171.353 Y121.688 E39.05379
G1 X171.253 Y122.725 E39.11443
G1 X171.15 Y123.232 E39.14454
G1 X171 Y123.856 E39.18189
G1 X170.858 Y124.392 E39.21417
G1 X170.635 Y125.071 E39.25577
G1 X170.395 Y125.609 E39.29006
G1 X170.017 Y126.362 E39.3391
G1 X169.711 Y126.924 E39.37634
G1 X169.33 Y127.529 E39.41796
G1 X168.979 Y127.978 E39.45113
G1 X168.501 Y128.537 E39.49394
G1 X168.069 Y129.015 E39.53144
G1 X167.558 Y129.515 E39.57305
G1 X167.086 Y129.889 E39.60811
G1 X166.372 Y130.403 E39.65931
G1 X165.93 Y130.704 E39.69044
G1 X165.315 Y131.069 E39.73206
G1 X164.746 Y131.33 E39.7685
G1 X164.056 Y131.607 E39.81178
G1 X163.896 Y131.669 E39.82177
G1 X163.421 Y131.845 E39.85125
G1 X162.737 Y132.056 E39.89291
G1 X162.118 Y132.177 E39.92962
G1 X161.572 Y132.253 E39.96171
G1 X160.706 Y132.35 E40.01243
G1 X159.946 Y132.395 E40.05674
G1 X159.637 Y132.4 E40.07473
G1 X50.707 Y132.4 E46.41503
G1 X49.98 Y132.39 E46.45735
G1 X49.416 Y132.357 E46.49023
G1 X48.639 Y132.277 E46.5357
G1 X47.938 Y132.185 E46.57685
G1 X46.996 Y131.984 E46.63291
G1 X46.415 Y131.791 E46.66855
G1 X45.919 Y131.606 E46.69936
G1 X45.327 Y131.37 E46.73645
G1 X44.679 Y131.066 E46.77811
G1 X44.177 Y130.765 E46.81218
G1 X43.56 Y130.356 E46.85527
G1 X43 Y129.963 E46.89509
G1 X42.501 Y129.571 E46.93203
G1 X42.478 Y129.551 E46.9338
G1 X42.052 Y129.145 E46.96805
G1 X41.67 Y128.733 E47.00075
G1 X41.049 Y128.015 E47.05601
G1 X40.612 Y127.449 E47.09763
G1 X40.337 Y126.981 E47.12922
G1 X40.324 Y126.988 E47.13008
G1 X40.065 Y126.519 E47.16127
G1 X39.653 Y125.716 E47.2138
G1 X39.359 Y125.064 E47.25543
G1 X39.141 Y124.387 E47.29683
G1 X39.001 Y123.845 E47.32941
G1 X38.822 Y123.095 E47.37429
G1 X38.695 Y122.391 E47.41593
G1 X38.652 Y121.862 E47.44682
G1 X38.636 Y121.162 E47.48757
G1 X38.637 Y120.993 E47.49741
G1 X38.647 Y120.318 E47.5367
G1 X38.677 Y119.749 E47.56987
G1 X38.833 Y116.995 E47.73042
G1 X38.908 Y114.385 E47.8824
G1 X38.908 Y111.741 E48.0363
G1 X38.833 Y109.055 E48.1927
G1 X38.719 Y106.925 E48.31685
G1 X38.658 Y105.985 E48.37168
G1 X38.636 Y105.157 E48.41989
G1 X38.637 Y104.994 E48.42938
G1 X38.647 Y104.313 E48.46902
G1 X38.742 Y103.304 E48.52801
G1 X38.85 Y102.768 E48.55983
G1 X39.002 Y102.135 E48.59772
G1 X39.142 Y101.608 E48.62946
G1 X39.365 Y100.929 E48.67106
G1 X39.605 Y100.391 E48.70535
G1 X39.983 Y99.638 E48.75439
G1 X40.293 Y99.069 E48.7921
G1 X40.675 Y98.464 E48.83375
G1 X41.024 Y98.018 E48.86671
G1 X41.505 Y97.456 E48.90977
G1 X41.93 Y96.986 E48.94665
G1 X42.441 Y96.486 E48.98827
G1 X42.916 Y96.109 E49.02356
G1 X43.629 Y95.596 E49.07469
G1 X44.07 Y95.296 E49.10573
G1 X44.685 Y94.931 E49.14736
G1 X45.252 Y94.67 E49.18369
G1 X45.944 Y94.392 E49.2271
G1 X46.109 Y94.329 E49.23738
G1 X46.582 Y94.154 E49.26673
G1 X47.266 Y93.943 E49.3084
G1 X47.882 Y93.823 E49.34492
G1 X48.428 Y93.747 E49.37701
G1 X49.294 Y93.65 E49.42773
G1 X50.054 Y93.605 E49.47204
G1 X50.363 Y93.6 E49.49003
G1 X159.293 Y93.6 E55.83033
G1 X159.382 Y93.601 E55.83551
G1 X160.032 Y93.61 E55.87335
M204 S3000
M205 X10 Y10
G1 F2400 E49.87335
;MESH:x_holder.stl
G0 F3000 X159.948 Y99.335
G0 X159.948 Y100.859
G0 X161.671 Y101.824
M204 S1800
M205 X8 Y8
;TYPE:WALL-INNER
G1 F2400 E55.87335
G1 F1200 X162.378 Y102.311 E55.92332
G1 X162.954 Y102.961 E55.97387
G1 X163.355 Y103.725 E56.02409
G1 X163.564 Y104.57 E56.07475
G1 X163.564 Y105.43 E56.12481
G1 X163.356 Y106.273 E56.17535
G1 X162.955 Y107.039 E56.22567
G1 X162.381 Y107.687 E56.27606
G1 X161.675 Y108.174 E56.32598
G1 X160.854 Y108.485 E56.37708
G1 X159.911 Y108.6 E56.43238
G1 X50.085 Y108.6 E62.82482
G1 X49.141 Y108.486 E62.88017
G1 X48.331 Y108.178 E62.93061
G1 X47.622 Y107.689 E62.98074
G1 X47.046 Y107.039 E63.03129
G1 X46.645 Y106.275 E63.08151
G1 X46.436 Y105.43 E63.13218
G1 X46.436 Y104.57 E63.18223
G1 X46.644 Y103.727 E63.23277
G1 X47.045 Y102.961 E63.2831
G1 X47.619 Y102.313 E63.33348
G1 X48.325 Y101.826 E63.3834
G1 X49.146 Y101.514 E63.43453
G1 X50.089 Y101.4 E63.48981
G1 X159.915 Y101.4 E69.88226
G1 X160.853 Y101.514 E69.93726
G1 X161.671 Y101.824 E69.98818
M204 S3000
M205 X10 Y10
G0 F3000 X49.942 Y102.546
G0 X48.832 Y102.836
G0 X47.96 Y103.627
G0 X47.556 Y104.734
G0 X47.683 Y105.79
G0 X48.646 Y107.659
M204 S1800
M205 X8 Y8
G1 F1200 X49.313 Y107.901 E70.02947
G1 X49.915 Y107.975 E70.06478
G1 X160.093 Y107.975 E76.47771
G1 X160.748 Y107.887 E76.51618
G1 X161.418 Y107.626 E76.55803
G1 X162.005 Y107.21 E76.59991
G1 X162.475 Y106.666 E76.64175
G1 X162.803 Y106.026 E76.68361
G1 X162.966 Y105.323 E76.72562
G1 X162.957 Y104.605 E76.76741
G1 X162.776 Y103.907 E76.80938
G1 X162.433 Y103.276 E76.85119
G1 X161.951 Y102.745 E76.89293
G1 X161.354 Y102.341 E76.93488
G1 X160.687 Y102.099 E76.97618
G1 X160.085 Y102.025 E77.01149
G1 X49.907 Y102.025 E83.42442
G1 X49.252 Y102.113 E83.46289
G1 X48.582 Y102.374 E83.50474
G1 X47.995 Y102.79 E83.54662
G1 X47.525 Y103.334 E83.58846
G1 X47.197 Y103.974 E83.63032
G1 X47.034 Y104.677 E83.67233
G1 X47.043 Y105.395 E83.71412
G1 X47.224 Y106.093 E83.75609
G1 X47.567 Y106.724 E83.79789
G1 X48.049 Y107.255 E83.83963
G1 X48.646 Y107.659 E83.88159
M204 S3000
M205 X10 Y10
G0 F3000 X47.712 Y105.9
G0 X47.634 Y104.134
G0 X47.727 Y104.168
M204 S1800
M205 X8 Y8
G1 F1200 X47.595 Y104.738 E83.91565
G1 X47.602 Y105.32 E83.94953
G1 X47.749 Y105.886 E83.98356
G1 X48.027 Y106.398 E84.01747
G1 X48.418 Y106.829 E84.05134
G1 X48.902 Y107.156 E84.08534
G1 X49.444 Y107.353 E84.11891
G1 X49.949 Y107.415 E84.14852
G1 X160.056 Y107.415 E90.55733
G1 X160.607 Y107.341 E90.58969
G1 X161.15 Y107.129 E90.62362
G1 X161.626 Y106.792 E90.65756
G1 X162.007 Y106.351 E90.69148
G1 X162.273 Y105.832 E90.72543
G1 X162.405 Y105.262 E90.75948
G1 X162.398 Y104.68 E90.79336
G1 X162.251 Y104.114 E90.8274
G1 X161.973 Y103.602 E90.86131
G1 X161.582 Y103.171 E90.89518
G1 X161.098 Y102.844 E90.92918
G1 X160.556 Y102.647 E90.96274
G1 X160.051 Y102.585 E90.99236
G1 X49.944 Y102.585 E97.40116
G1 X49.393 Y102.659 E97.43352
